<?xml version="1.0" encoding="UTF-8"?>
<map version="1.10" tiledversion="1.12.2" orientation="orthogonal" renderorder="right-down" width="64" height="56" tilewidth="16" tileheight="16" infinite="0" nextlayerid="12" nextobjectid="245">
 <editorsettings>
  <export target="level2.tmj" format="json"/>
 </editorsettings>
 <tileset firstgid="1" name="grass" tilewidth="16" tileheight="16" tilecount="256" columns="16">
  <image source="grass.png" width="256" height="256"/>
 </tileset>
 <tileset firstgid="257" name="road" tilewidth="16" tileheight="16" tilecount="256" columns="16">
  <image source="road.png" width="256" height="256"/>
 </tileset>
 <tileset firstgid="513" name="street acc2" tilewidth="16" tileheight="16" tilecount="256" columns="16">
  <image source="street acc2.png" width="256" height="256"/>
 </tileset>
 <tileset firstgid="769" name="top objects2" tilewidth="16" tileheight="16" tilecount="256" columns="16">
  <image source="top objects2.png" width="256" height="256"/>
 </tileset>
 <tileset firstgid="1025" name="top objects3" tilewidth="16" tileheight="16" tilecount="4096" columns="64">
  <image source="top objects3.png" width="1024" height="1024"/>
 </tileset>
 <tileset firstgid="5121" name="street acc" tilewidth="16" tileheight="16" tilecount="256" columns="16">
  <image source="street acc.png" width="256" height="256"/>
 </tileset>
 <tileset firstgid="5377" name="buildB" tilewidth="16" tileheight="16" tilecount="169" columns="13">
  <image source="buildB.png" width="208" height="208"/>
 </tileset>
 <tileset firstgid="5546" name="greenery" tilewidth="16" tileheight="16" tilecount="256" columns="16">
  <image source="greenery.png" width="256" height="256"/>
 </tileset>
 <tileset firstgid="5802" name="background" tilewidth="16" tileheight="16" tilecount="408" columns="24">
  <image source="background.png" width="384" height="272"/>
 </tileset>
 <layer id="1" name="grass" width="64" height="56">
  <data encoding="csv">
6090,6090,5840,5841,5829,5841,37,8,33,5841,35,36,5841,17,18,19,20,21,22,23,54,55,56,20,49,1,2,3,4,5,6,7,8,36,37,38,39,40,17,18,19,20,21,33,34,35,36,37,38,39,40,34,35,36,37,18,19,20,34,35,36,37,38,39,
6090,5831,5840,5841,51,5841,53,3,49,5841,51,5807,5841,33,34,35,36,23,23,24,70,71,72,28,5841,17,18,19,20,21,22,23,24,52,53,54,55,56,33,34,35,36,37,49,50,51,52,53,54,55,56,50,5841,52,53,34,35,36,50,51,52,53,54,55,
6090,5806,5840,5841,67,5841,69,19,65,5841,5854,1,5841,49,50,51,52,39,39,40,86,87,88,44,5841,5806,5841,35,36,37,38,39,40,68,69,70,71,72,49,50,51,52,53,65,66,67,68,69,12,13,14,15,16,68,69,50,51,52,66,67,68,69,70,71,
6090,6090,5840,5841,83,5841,85,35,81,5841,83,17,5841,65,66,67,68,55,55,56,70,71,72,60,5841,49,50,51,52,53,54,55,56,84,85,86,87,88,65,66,67,68,69,81,82,1,2,3,28,29,30,31,32,84,85,66,67,68,82,83,84,85,86,87,
5841,5841,5840,5841,20,5841,50,51,97,5841,99,33,5841,81,82,83,84,71,71,72,86,87,88,76,49,65,66,67,68,69,70,71,72,100,101,102,103,104,81,82,83,84,85,97,98,17,18,19,44,45,46,47,48,100,101,82,83,18,98,99,100,101,102,103,
5841,33,5840,5841,36,5841,66,67,113,5841,115,49,5841,97,98,99,100,87,87,88,70,71,72,92,5841,81,82,83,84,85,86,87,88,116,117,118,119,120,97,98,5841,100,101,113,114,33,34,35,60,61,62,63,64,116,117,18,19,20,21,22,23,24,39,40,
5841,49,5840,5841,52,5841,82,83,84,5841,86,65,5841,113,114,115,116,81,82,1,86,87,88,5841,5840,97,98,99,100,101,102,103,104,51,52,53,54,55,113,114,115,116,1,5831,3,49,50,51,5807,77,78,79,80,69,70,18,19,20,21,22,5841,24,55,56,
5841,65,5840,5841,68,5841,98,99,100,5841,102,81,5841,1,2,3,4,5,6,17,54,55,56,5841,5841,113,114,115,116,117,118,119,120,67,68,69,70,71,17,97,98,99,17,18,19,65,66,67,92,93,94,95,96,5816,5835,12,13,14,15,16,39,40,71,72,
5841,81,5840,5841,84,5841,114,115,116,5841,118,97,5841,17,18,19,20,21,22,33,70,71,72,5841,50,50,5830,52,53,54,12,13,14,15,16,85,86,87,33,113,114,115,33,34,35,81,82,83,84,85,86,87,88,101,102,28,29,30,31,32,19,20,21,5807,
5841,5841,5840,5841,9,5841,19,20,21,5841,5841,113,5841,33,34,35,36,37,38,49,86,87,88,5841,65,66,67,68,69,70,28,29,30,31,32,101,19,20,21,22,23,24,25,26,26,97,98,99,100,5937,5841,103,104,117,118,44,45,46,47,48,35,36,37,38,
5841,5841,5840,5841,25,5841,35,36,37,5841,38,37,5841,49,50,51,52,53,54,65,66,67,68,5841,5841,82,83,84,85,86,44,45,46,47,48,117,35,36,37,38,39,40,41,42,42,113,5841,115,116,5965,118,119,120,23,24,82,83,84,50,50,51,52,53,54,
5841,5841,5840,5841,41,5841,51,52,53,5841,54,53,5841,65,66,67,68,69,70,81,82,83,84,5841,5854,98,99,100,101,102,60,61,62,63,64,54,51,52,53,5807,55,56,57,58,58,84,85,33,34,5965,36,37,38,18,19,20,21,22,23,24,67,68,69,70,
5841,5841,5840,5841,57,5841,67,68,69,5841,70,69,5854,5841,5841,5841,5807,5841,5841,5841,5841,5841,5841,5841,5841,114,115,116,117,118,5841,77,78,79,80,70,67,68,69,70,71,72,73,74,74,100,101,49,5854,5965,5841,53,54,34,5841,36,37,38,39,40,83,84,85,86,
5841,5841,5840,5841,56,5841,58,59,60,5841,84,85,86,97,98,99,100,101,5854,1,1,1,2,3,49,50,51,52,53,54,92,93,94,95,96,5830,83,84,85,86,87,88,89,90,90,116,117,65,66,5965,68,69,70,50,51,52,53,54,55,56,99,100,101,102,
5841,5841,5840,5841,72,5841,74,75,76,5841,100,101,102,113,114,115,116,117,118,17,17,17,18,19,65,66,67,5807,69,70,108,109,110,111,112,102,99,5841,101,102,103,104,105,106,106,5,6,81,82,6080,84,85,86,66,67,68,69,70,71,72,37,38,39,40,
5841,5841,5840,5841,23,5841,25,26,27,5841,5841,5841,5841,5841,5841,5841,5841,5841,5841,5841,5841,5841,5841,5841,5841,5841,5841,5841,5841,5841,5841,5841,5841,5841,5841,5841,5841,5841,5841,5841,5841,5841,5841,5841,5841,5841,5841,5841,5841,5841,5841,5841,5841,5841,5841,5841,5841,5841,5841,5841,5841,5841,5841,5841,
5841,5841,5840,5841,5841,5841,25,26,27,28,29,38,39,40,36,37,38,39,17,49,49,49,50,51,37,38,39,40,41,42,43,44,35,36,37,38,39,40,35,36,37,33,34,35,36,37,38,113,114,115,116,117,118,98,18,74,75,76,77,78,79,21,22,23,
5841,5841,5840,5841,39,5841,41,42,43,44,45,54,55,56,52,53,54,55,33,65,65,65,66,67,53,54,55,56,57,58,59,60,51,52,53,54,55,56,51,52,53,49,50,51,52,53,54,55,56,35,81,82,83,84,34,90,91,92,93,94,95,21,22,23,
5841,5841,5840,5841,55,5841,57,58,59,60,61,57,58,59,60,61,62,71,49,81,81,81,82,83,69,70,71,72,73,74,75,76,67,68,69,70,71,72,67,5841,5841,5841,5841,5841,5841,5841,5841,5841,5841,5841,5841,5841,99,100,50,106,107,108,109,110,111,37,38,39,
5841,5841,5840,5841,71,72,5841,5841,5841,5841,5841,5841,5841,5841,5841,5841,5841,5841,5841,5841,5841,5841,5841,5841,5841,5841,5841,5841,5841,5841,5841,5841,5841,5841,5841,5841,5841,5841,5841,5841,5841,5841,5841,5841,5841,5841,5841,5841,5841,5841,5841,5841,5841,5841,5841,5841,5841,5841,5841,5841,5841,5841,5841,5841,
5841,5841,5840,5841,87,88,5807,90,91,5841,93,89,90,91,92,93,94,103,81,113,113,113,114,115,116,49,50,51,52,53,97,98,99,100,74,75,76,77,78,79,80,97,98,99,100,101,102,103,104,83,84,85,86,87,82,83,84,85,66,67,68,69,70,71,
5841,5841,5840,5841,5,6,113,114,115,103,104,105,106,107,108,5817,110,119,97,97,98,99,100,101,102,65,66,67,68,69,113,114,115,116,90,91,92,93,94,95,96,113,114,115,116,117,118,119,120,99,100,101,102,103,98,99,100,101,82,83,84,85,86,87,
6090,5805,5840,5841,5841,5841,5841,5841,5841,5841,5841,5841,5841,5841,5841,5841,5841,5841,5841,5841,5841,5841,5841,5841,5841,5841,5841,5841,5841,5841,5841,5841,5841,5841,5841,5841,5841,5841,5841,5841,5841,5841,5841,5841,5841,5841,5841,5841,5841,5841,5841,5841,5841,5841,5841,5841,5841,5841,5841,5841,5841,5841,5841,5841,
5829,6090,5840,5841,5841,5841,5841,5841,5841,5841,5841,5841,5841,5841,5841,5841,5841,5841,5841,5841,5841,5841,5841,5841,5841,5841,5841,5841,5841,5841,5841,5841,5841,5841,5841,5841,5841,5841,5841,5841,5841,5841,5841,5841,5841,5841,5841,5841,5841,5841,5841,5841,5841,5841,5841,5841,5841,5841,5841,5841,5841,5841,5841,5841,
6090,6090,5864,5865,5865,5865,5865,5865,5865,5865,5865,5865,5865,5865,5865,5865,5865,5865,5865,5865,5865,5865,5865,5865,5865,5865,5865,5865,5865,5865,5865,5865,5865,5865,5865,5865,5865,5865,5865,5865,5865,5865,5865,5865,5865,5865,5841,5865,5865,5865,5865,5865,5865,5865,5865,5865,5865,5865,5865,5865,5865,5865,5865,5865,
6090,6090,6090,6090,6090,6090,6090,6090,6090,6090,6090,6090,6090,6090,6090,6090,6090,6090,6090,6090,6090,6090,6090,6090,6090,6090,6090,6090,6090,6090,6090,6090,6090,6090,6090,6090,6090,6090,6090,6090,6090,6090,6090,6090,6090,6090,6090,6090,6090,6090,6090,6090,6090,6090,6090,6090,5806,6090,6090,6090,6090,5854,6090,5829,
6090,6090,6090,6090,6090,5862,5862,5862,5854,5862,5862,5862,5862,5862,5862,5862,5862,5862,5862,5862,5862,5862,5862,5862,5862,5862,5862,5862,5862,5862,5862,5841,5862,5862,5862,5862,5862,5862,5862,5862,5862,5862,5862,5862,5862,5862,5862,5854,5862,5862,5862,5862,5862,5862,5862,5862,5862,5862,5862,5862,5862,5862,5862,5862,
6090,5853,6090,6090,6090,6090,6090,6090,6090,6090,6090,6090,6090,6090,5841,5853,6090,6090,6090,6090,6090,5820,6090,6090,6090,5830,6090,6090,5854,6090,6090,6090,6090,6090,6090,6090,5853,6090,6090,6090,6090,6090,6090,6090,6090,6090,6090,6090,6090,6090,6090,5805,6090,6090,6090,5830,6090,6090,6090,6090,6090,6090,6090,6090,
6090,6090,6090,6090,5806,6090,6090,5805,6090,6090,6090,6090,6090,6090,6090,6090,6090,6090,6090,6090,6090,6090,6090,6090,6090,6090,6090,6090,6090,6090,5805,6090,6090,6090,6090,6090,6090,6090,6090,6090,6090,6090,6090,6090,5829,6090,6090,6090,5806,6090,6090,6090,6090,5819,6090,6090,6090,6090,6090,6090,6090,6090,5853,6090,
6090,6090,6090,6090,6090,6090,6090,6090,6090,6090,6090,6090,6090,6090,6090,6090,6090,6090,6090,6090,5806,6090,6090,6090,6090,6090,6090,6090,6090,6090,6090,6090,6090,6090,5829,6090,6090,6090,6090,6090,6090,6090,6090,5830,6090,6090,6090,6090,6090,6090,6090,6090,6090,5841,6090,6090,6090,6090,5854,6090,6090,6090,6090,6090,
6090,6090,6090,6090,6090,5862,5862,6056,5841,6090,5862,5862,5862,5862,5830,5862,5805,5862,5862,5862,5862,5862,5862,5862,5862,5862,5862,5862,5862,5862,5862,5862,5862,5862,5862,5862,5862,5862,5862,5806,5862,5862,5862,5862,5862,5862,5862,5862,5862,5853,5862,5862,5862,5862,5862,5862,5862,5862,5862,5862,5862,5862,5862,5862,
6090,6090,5854,6090,6090,6090,6090,6090,6090,6090,6090,6090,6090,6090,6090,6090,6090,6090,6090,6090,6090,6090,6090,6090,6090,6090,6090,6090,6090,5806,6090,6090,6090,6090,6090,6090,6090,6090,6090,6090,6090,6090,6090,6090,6090,6090,6090,6090,6090,6090,6090,6090,6090,6090,6090,6090,6090,6090,6090,6090,6090,6090,6090,6090,
6090,6090,6090,6090,6090,6090,5853,6090,6090,6090,6090,6090,5829,6090,6090,6090,6090,6090,5854,6090,6090,6090,6090,5937,6090,6090,6090,6090,6090,6090,6090,6090,6090,6090,6090,5854,6090,6090,6090,6090,6090,6090,6090,6090,6090,6090,6090,6090,6090,6090,6090,6090,6090,6090,6090,6090,6090,6090,6090,6090,6090,6090,5819,6090,
6090,6090,6090,6090,6090,6090,6090,6090,6090,6090,6090,6090,6090,6090,6090,6090,6090,6090,6090,6090,6090,6090,6090,5962,6090,6090,6090,6090,6090,6090,6090,5841,6090,6090,6090,6090,6090,6090,6090,6090,6090,6090,5805,6090,6090,6090,6090,6090,6090,6090,6090,5854,6090,6090,5829,6090,6090,5806,6090,6090,6090,6090,6090,6090,
6090,6090,6090,6090,5805,6090,6090,6090,6090,5854,6090,6090,6090,6090,6090,6090,6090,6090,6090,6090,6090,5805,6090,6090,6090,6090,6090,5853,6090,6090,6090,5865,6090,6090,6090,6090,6090,6090,6090,5829,6090,6090,6090,6090,5820,6090,6090,6090,6090,6090,6090,6090,6090,6090,6090,6090,6090,5830,6090,6090,6090,6090,6090,6090,
6090,6090,6090,5820,5817,5817,5817,5817,5817,5817,5817,5817,5817,5817,5817,5817,5817,5817,5817,5817,5817,5817,5817,5817,5817,5817,5817,5817,5817,5817,5817,5817,5817,5817,5817,5841,5817,5817,5817,5817,5817,5817,5817,5817,5817,5817,5817,5817,5817,5817,5817,5817,5817,5817,5817,5817,5817,5817,5817,5817,5817,5817,5807,5807,
2147489489,2147489489,2147489489,2147489489,2147489489,2147489489,2147489489,2147489489,2147489489,2147489489,2147489489,2147489489,2147489489,2147489489,2147489489,2147489489,2147489489,2147489489,2147489489,2147489489,2147489489,2147489489,2147489489,2147489489,2147489489,2147489489,2147489489,2147489489,2147489489,2147489489,2147489489,2147489489,2147489489,2147489489,2147489489,2147489489,2147489489,2147489489,2147489489,2147489489,2147489489,2147489489,2147489489,2147489489,2147489489,2147489489,2147489489,2147489489,2147489489,2147489489,2147489489,2147489489,2147489489,2147489489,2147489489,2147489489,2147489489,2147489489,2147489489,2147489489,2147489489,2147489489,2147489585,2147489467,
2147489489,2147489489,2147489489,2147489489,2147489489,2147489489,2147489489,2147489489,2147489489,2147489489,2147489489,2147489489,2147489489,2147489489,2147489489,2147489489,2147489489,2147489489,2147489489,2147489489,2147489489,2147489489,2147489489,2147489489,2147489489,2147489489,2147489489,2147489489,2147489489,2147489489,6090,2147489489,2147489489,2147489489,2147489489,2147489489,2147489489,2147489489,2147489489,2147489489,2147489489,2147489489,2147489489,2147489489,2147489489,2147489489,2147489489,2147489489,2147489489,2147489489,2147489489,2147489489,2147489489,2147489489,2147489489,2147489489,2147489489,2147489489,2147489489,2147489489,2147489489,2147489489,2147489489,2147489488,
2147489489,2147489489,2147489489,2147489489,2147489489,2147489489,2147489489,2147489489,2147489489,2147489489,2147489489,2147489489,2147489489,2147489489,2147489489,2147489489,2147489489,2147489489,2147489489,2147489489,2147489489,2147489489,2147489489,2147489489,2147489489,5962,2147489489,2147489489,2147489489,6090,2147489489,2147489489,2147489489,2147489489,2147489489,2147489489,2147489489,2147489489,2147489489,2147489489,2147489489,2147489489,2147489489,2147489489,2147489489,2147489489,2147489489,2147489489,2147489489,2147489489,2147489489,2147489489,2147489489,2147489489,2147489489,2147489489,2147489489,6090,6090,2147489489,2147489489,2147489489,2147489489,2147489488,
2147489738,2147489738,2147489738,2147489738,2147489738,2147489738,2147489738,2147489738,2147489738,2147489738,2147489738,2147489738,5820,2147489738,2147489738,2147489738,2147489738,2147489738,2147489738,2147489738,2147489738,2147489738,2147489738,2147489738,2147489738,2147489738,2147489738,2147489738,2147489738,2147489738,2147489738,2147489738,2147489738,2147489738,2147489738,2147489738,2147489738,2147489738,2147489738,2147489738,2147489738,2147489738,2147489738,2147489738,2147489738,2147489738,2147489738,2147489738,2147489738,2147489738,2147489738,2147489738,2147489738,2147489738,2147489738,2147489738,2147489738,2147489738,6090,6090,5820,2147489489,2147489489,2147489488,
2147489489,2147489489,2147489489,2147489489,2147489489,2147489489,2147489489,2147489489,2147489489,2147489489,2147489489,5842,6090,2147489489,2147489489,2147489489,2147489489,2147489489,2147489489,2147489489,2147489489,2147489489,2147489489,2147489489,2147489489,2147489489,2147489489,2147489489,2147489489,2147489489,2147489489,2147489489,2147489489,2147489489,2147489489,2147489489,2147489489,2147489489,2147489489,2147489489,2147489489,2147489489,2147489489,2147489489,2147489489,2147489489,2147489489,2147489489,2147489489,2147489489,2147489489,2147489489,2147489489,2147489489,2147489489,2147489489,2147489489,2147489489,2147489489,6090,6090,6090,2147489489,2147489488,
2147489489,2147489489,2147489489,2147489489,2147489489,2147489489,2147489489,2147489489,2147489489,2147489489,2147489489,2147489489,2147489489,2147489489,2147489489,2147489489,2147489489,2147489489,2147489489,2147489489,2147489489,2147489489,2147489489,2147489489,2147489489,2147489489,2147489489,2147489489,2147489489,2147489489,2147489489,2147489489,2147489489,2147489489,2147489489,2147489489,2147489489,2147489489,2147489489,2147489489,2147489489,2147489489,2147489489,2147489489,2147489489,2147489489,2147489489,2147489489,2147489489,2147489489,2147489489,2147489489,2147489489,2147489489,2147489489,2147489489,2147489489,2147489489,2147489489,2147489738,5841,2147489489,2147489489,2147489488,
2147489489,2147489489,2147489489,2147489489,2147489489,2147489489,2147489489,2147489489,2147489489,6090,6090,2147489489,2147489489,2147489489,2147489489,2147489489,2147489489,2147489489,2147489489,2147489489,2147489489,2147489489,2147489489,2147489489,2147489489,2147489489,2147489489,2147489489,2147489489,2147489489,2147489489,2147489489,2147489489,2147489489,2147489489,2147489489,2147489489,2147489489,2147489489,5817,2147489489,2147489489,2147489489,2147489489,2147489489,2147489489,2147489489,2147489489,2147489489,2147489489,2147489489,2147489489,2147489489,2147489489,2147489489,2147489489,5842,2147489489,2147489489,2147489738,5841,2147489489,2147489489,2147489488,
2147489489,2147489489,2147489489,2147489489,2147489489,2147489489,2147489489,2147489489,2147489489,2147489489,2147489489,2147489489,2147489489,2147489489,2147489489,2147489489,2147489489,2147489489,2147489489,2147489489,2147489489,2147489489,2147489489,2147489489,2147489489,2147489489,2147489489,2147489489,2147489489,2147489489,2147489489,2147489489,2147489489,2147489489,2147489489,2147489489,2147489489,2147489489,2147489489,2147489489,2147489489,2147489489,2147489489,2147489489,2147489489,2147489489,2147489489,2147489489,2147489489,2147489489,2147489489,2147489489,2147489489,2147489489,2147489489,2147489489,5842,5819,2147489489,2147489738,5841,2147489489,2147489489,2147489488,
2147489489,2147489489,2147489489,2147489489,2147489489,2147489489,2147489489,2147489489,2147489489,2147489489,2147489489,2147489489,2147489489,2147489489,2147489489,2147489489,2147489489,2147489489,2147489489,2147489489,2147489489,2147489489,2147489489,2147489489,2147489489,2147489489,2147489489,2147489489,2147489489,2147489489,2147489489,2147489489,2147489489,2147489489,2147489489,2147489489,2147489489,2147489489,2147489489,2147489489,2147489489,2147489489,2147489489,2147489489,2147489489,2147489489,2147489489,2147489489,2147489489,2147489489,2147489489,2147489489,2147489489,2147489489,2147489489,2147489489,2147489489,2147489489,2147489489,2147489738,5841,2147489489,2147489489,2147489488,
6090,5841,2147489513,2147489513,2147489513,2147489513,2147489513,2147489513,2147489513,2147489513,2147489513,2147489513,2147489513,2147489513,2147489513,2147489513,2147489513,2147489513,2147489513,2147489513,2147489513,2147489513,2147489513,2147489513,2147489513,2147489513,2147489513,2147489513,2147489513,2147489513,2147489513,2147489513,2147489513,2147489513,2147489513,2147489513,2147489513,2147489513,2147489513,2147489513,2147489513,2147489513,2147489513,2147489513,2147489513,2147489513,2147489513,2147489513,2147489513,2147489513,2147489513,2147489513,2147489513,2147489583,2147489489,2147489489,2147489489,2147489489,2147489489,2147489738,5841,2147489489,2147489489,2147489488,
6090,6090,2147489489,2147489489,2147489489,2147489489,2147489489,2147489489,2147489489,2147489489,2147489489,2147489455,2147489489,2147489489,2147489489,2147489489,2147489489,2147489489,2147489489,2147489489,2147489489,2147489489,2147489489,2147489489,2147489489,2147489489,2147489489,2147489489,2147489489,2147489489,2147489489,2147489489,2147489489,2147489489,2147489489,2147489489,2147489489,2147489489,2147489489,2147489489,2147489489,2147489489,2147489489,2147489489,2147489489,2147489489,2147489489,2147489489,2147489489,2147489489,2147489489,2147489489,2147489489,2147489490,2147489489,2147489489,2147489489,2147489489,2147489489,2147489738,5841,2147489489,2147489489,2147489488,
6090,5829,2147489489,2147489489,2147489489,2147489489,2147489489,2147489489,2147489489,2147489489,2147489489,2147489489,2147489489,2147489489,2147489489,2147489489,2147489489,2147489489,2147489489,2147489489,2147489489,2147489489,2147489489,2147489489,2147489489,2147489468,2147489489,2147489489,2147489489,2147489489,2147489489,2147489489,2147489489,2147489489,2147489455,2147489489,2147489489,2147489489,2147489489,2147489489,2147489489,2147489489,2147489489,2147489489,2147489489,2147489489,2147489489,2147489489,2147489467,2147489489,2147489489,2147489489,2147489489,2147489490,2147489489,2147489489,2147489489,2147489489,2147489489,2147489738,5841,2147489489,2147489489,2147489488,
6090,6090,2147489489,2147489489,2147489489,2147489489,2147489489,2147489489,2147489479,2147489489,2147489489,2147489489,2147489489,2147489489,2147489489,2147489489,2147489489,2147489489,2147489489,2147489489,2147489489,2147489489,2147489489,2147489489,2147489489,2147489489,2147489489,2147489489,2147489489,2147489489,2147489489,2147489489,2147489489,2147489489,2147489489,2147489489,2147489489,2147489489,2147489489,2147489489,2147489489,2147489489,2147489489,2147489489,2147489489,2147489489,2147489489,2147489489,2147489489,2147489489,2147489489,2147489489,2147489489,2147489490,2147489489,2147489489,2147489489,2147489489,2147489489,2147489738,5841,2147489489,2147489489,2147489488,
5819,6090,2147489489,2147489489,2147489489,2147489489,2147489489,2147489489,2147489489,2147489489,2147489489,2147489489,2147489489,2147489489,2147489489,2147489455,2147489585,2147489489,2147489489,2147489489,2147489489,2147489489,2147489489,2147489502,2147489489,2147489489,2147489489,2147489489,2147489489,2147489489,2147489489,2147489489,2147489489,2147489489,2147489489,2147489489,2147489489,2147489489,2147489489,2147489479,2147489489,2147489489,2147489489,2147489489,2147489489,2147489489,2147489489,2147489489,2147489489,2147489489,2147489489,2147489489,2147489489,2147489490,2147489489,2147489489,2147489489,2147489489,2147489489,2147489738,5841,2147489489,2147489489,2147489488,
6090,6090,2147489455,2147489489,2147489489,2147489489,2147489489,2147489489,2147489489,2147489489,2147489489,2147489489,2147489489,2147489489,2147489489,2147489455,2147489610,2147489489,2147489489,2147489489,2147489489,2147489489,2147489489,2147489489,2147489489,2147489489,2147489489,2147489489,2147489489,2147489489,2147489454,2147489489,2147489489,2147489489,2147489489,2147489489,2147489489,2147489489,2147489489,2147489489,2147489489,2147489489,2147489489,2147489489,2147489489,2147489489,2147489489,2147489489,2147489489,2147489489,2147489489,2147489489,2147489489,2147489490,2147489489,2147489489,2147489489,2147489489,2147489489,2147489738,5841,2147489489,2147489489,2147489488,
6090,5830,2147489489,2147489502,2147489489,2147489489,2147489489,2147489489,2147489489,2147489489,2147489489,2147489489,2147489489,2147489489,2147489489,2147489489,2147489489,2147489489,2147489489,2147489489,2147489489,2147489489,2147489489,2147489489,2147489489,2147489489,2147489489,2147489489,2147489489,2147489489,2147489489,2147489489,2147489489,2147489489,2147489489,2147489489,2147489489,2147489489,2147489489,2147489489,2147489489,2147489489,2147489489,2147489489,2147489489,2147489501,2147489489,2147489489,2147489489,2147489489,2147489489,2147489489,2147489489,2147489490,2147489489,2147489489,2147489489,2147489489,2147489489,2147489738,5841,2147489489,2147489489,2147489488,
6090,6090,2147489489,2147489489,2147489489,2147489489,2147489489,2147489489,2147489489,2147489489,2147489489,2147489489,2147489489,2147489489,2147489489,2147489489,2147489489,2147489489,2147489489,2147489489,2147489489,2147489489,2147489489,2147489489,2147489489,2147489489,2147489489,2147489489,2147489489,2147489489,2147489489,2147489489,2147489489,2147489489,2147489489,2147489489,2147489489,2147489489,2147489489,2147489489,2147489489,2147489489,2147489489,2147489489,2147489489,2147489489,2147489489,2147489489,2147489489,2147489489,2147489489,2147489455,2147489489,2147489490,2147489489,2147489489,2147489489,2147489489,2147489489,2147489738,5841,2147489489,2147489489,2147489488,
6090,6090,2147489489,2147489489,2147489489,2147489489,2147489489,2147489489,2147489489,2147489489,2147489478,2147489489,2147489489,2147489489,2147489489,2147489489,2147489489,2147489489,2147489489,2147489489,2147489489,2147489502,2147489455,2147489489,2147489489,2147489489,2147489489,2147489489,2147489489,2147489489,2147489489,2147489489,2147489489,2147489489,2147489489,2147489489,2147489489,2147489489,2147489489,2147489489,2147489489,2147489489,2147489489,2147489489,2147489489,2147489489,2147489489,2147489489,2147489489,2147489489,2147489489,2147489489,2147489489,2147489490,2147489489,2147489489,2147489489,2147489489,2147489489,2147489738,5841,2147489489,2147489489,2147489488,
6090,6090,2147489489,2147489489,2147489489,2147489455,2147489489,2147489489,2147489489,2147489489,2147489489,2147489489,2147489489,2147489489,2147489489,2147489489,2147489489,2147489489,2147489489,2147489489,2147489489,2147489489,2147489489,2147489489,2147489489,2147489489,2147489489,2147489489,2147489489,2147489489,2147489489,2147489489,2147489489,2147489501,2147489489,2147489489,2147489489,2147489489,2147489489,2147489489,2147489489,2147489477,2147489489,2147489489,2147489489,2147489489,2147489489,2147489489,2147489489,2147489489,2147489467,2147489489,2147489489,2147489490,2147489489,2147489489,2147489489,2147489489,2147489489,2147489738,5841,2147489489,2147489489,2147489488,
6090,6090,2147489489,2147489489,2147489489,2147489489,2147489489,2147489489,2147489489,2147489489,2147489489,2147489489,2147489489,2147489489,2147489489,2147489489,2147489489,2147489489,2147489489,2147489489,2147489489,2147489489,2147489489,2147489489,2147489489,2147489489,2147489479,2147489489,2147489489,2147489489,2147489489,2147489489,2147489489,2147489489,2147489489,2147489489,2147489455,2147489489,2147489489,2147489489,2147489489,2147489489,2147489489,2147489489,2147489489,2147489489,2147489489,2147489489,2147489489,2147489489,2147489489,2147489489,2147489479,2147489490,2147489489,2147489489,2147489489,2147489489,2147489489,2147489738,5841,2147489489,2147489489,2147489738
</data>
 </layer>
 <objectgroup id="7" name="interactions">
  <object id="6" name="rad" x="142.466" y="208.102" width="49.25" height="49.25">
   <ellipse/>
  </object>
  <object id="7" name="rad" x="430.375" y="191.375" width="49.25" height="49.25">
   <ellipse/>
  </object>
  <object id="58" name="barrel" x="768" y="48" width="16" height="16">
   <properties>
    <property name="type" value="red_rust"/>
   </properties>
  </object>
  <object id="59" name="barrel" x="976" y="64" width="16" height="16">
   <properties>
    <property name="type" value="blue"/>
   </properties>
  </object>
  <object id="60" name="barrel" x="384" y="32" width="16" height="16">
   <properties>
    <property name="type" value="red"/>
   </properties>
  </object>
  <object id="69" name="barrel" x="624" y="0" width="16" height="16">
   <properties>
    <property name="type" value="blue"/>
   </properties>
  </object>
  <object id="71" name="rad" x="606.25" y="253.75" width="49.25" height="49.25">
   <ellipse/>
  </object>
  <object id="118" name="rad" x="1" y="33.625" width="107.5" height="330.875"/>
  <object id="119" name="rad" x="719.042" y="430.708" width="49.25" height="49.25">
   <ellipse/>
  </object>
  <object id="120" name="rad" x="733.375" y="447.042" width="49.25" height="49.25">
   <ellipse/>
  </object>
  <object id="121" name="rad" x="863.708" y="431.042" width="49.25" height="49.25">
   <ellipse/>
  </object>
  <object id="122" name="rad" x="960.042" y="398.042" width="49.25" height="49.25">
   <ellipse/>
  </object>
  <object id="123" name="rad" x="944.042" y="510.042" width="49.25" height="49.25">
   <ellipse/>
  </object>
  <object id="124" name="rad" x="782.708" y="540.708" width="49.25" height="49.25">
   <ellipse/>
  </object>
  <object id="125" name="rad" x="178" y="365.5" width="46.25" height="46.25">
   <ellipse/>
  </object>
  <object id="126" name="rad" x="177.375" y="353.375" width="46.25" height="46.25">
   <ellipse/>
  </object>
  <object id="127" name="rad" x="207.875" y="353.125" width="46.25" height="46.25">
   <ellipse/>
  </object>
  <object id="128" name="rad" x="207.625" y="365.375" width="46.25" height="46.25">
   <ellipse/>
  </object>
  <object id="183" name="zombieBig" x="242.375" y="540.625" width="16.75" height="16.5"/>
  <object id="184" name="zombieAxe" x="717.542" y="117.458" width="16" height="16.25"/>
  <object id="185" name="zombieSmall" x="164.958" y="639.875" width="17.6667" height="16.3333"/>
  <object id="186" name="zombieSmall" x="640.167" y="543.833" width="17.6667" height="16.3333"/>
  <object id="187" name="zombieAxe" x="937.25" y="119.875" width="16" height="16.25"/>
  <object id="188" name="zombieAxe" x="810" y="11.875" width="16" height="16.25"/>
  <object id="189" name="zombieBig" x="518.292" y="322.417" width="16.75" height="16.5"/>
  <object id="190" name="zombieBig" x="66.9583" y="299.75" width="16.75" height="16.5"/>
  <object id="191" name="zombieBig" x="760.292" y="253.083" width="16.75" height="16.5"/>
  <object id="192" name="zombieBig" x="925.625" y="319.083" width="16.75" height="16.5"/>
  <object id="193" name="zombieSmall" x="386.235" y="5.21971" width="17.6667" height="16.3333"/>
  <object id="194" name="zombieSmall" x="390.667" y="93.5833" width="17.6667" height="16.3333"/>
  <object id="195" name="zombieBig" x="634.958" y="60.4167" width="16.75" height="16.5"/>
  <object id="196" name="zombieSmall" x="882.167" y="552.333" width="17.6667" height="16.3333"/>
  <object id="197" name="zombieBig" x="513.625" y="420.75" width="16.75" height="16.5"/>
  <object id="198" name="zombieBig" x="141.625" y="421.25" width="16.75" height="16.5"/>
  <object id="199" name="zombieAxe" x="10" y="370.208" width="16" height="16.25"/>
  <object id="200" name="zombieSmall" x="550.167" y="681.833" width="17.6667" height="16.3333"/>
  <object id="201" name="zombieSmall" x="584.167" y="617.833" width="17.6667" height="16.3333"/>
  <object id="226" name="rad" x="270.375" y="636.875" width="49.25" height="49.25">
   <ellipse/>
  </object>
  <object id="227" name="rad" x="541.375" y="591.125" width="49.25" height="49.25">
   <ellipse/>
  </object>
  <object id="230" name="daughter" x="928.455" y="864.364" width="16" height="16"/>
  <object id="231" name="zombieAxe" x="679.333" y="316.542" width="16" height="16.25"/>
  <object id="232" name="zombieAxe" x="251.333" y="223.208" width="16" height="16.25"/>
  <object id="233" name="zombieAxe" x="959.333" y="815.208" width="16" height="16.25"/>
  <object id="237" name="barrel" x="640" y="257" width="16" height="16">
   <properties>
    <property name="type" value="blue"/>
   </properties>
  </object>
  <object id="238" name="barrel" x="944" y="336" width="16" height="16">
   <properties>
    <property name="type" value="blue"/>
   </properties>
  </object>
  <object id="239" name="barrel" x="176" y="304" width="16" height="16">
   <properties>
    <property name="type" value="blue"/>
   </properties>
  </object>
  <object id="244" name="portal" x="111.5" y="0.375" width="16.375" height="15.5">
   <properties>
    <property name="target" value="MainScene"/>
   </properties>
  </object>
 </objectgroup>
 <objectgroup id="5" name="collisions">
  <object id="1" x="191.333" y="-2" width="191.333" height="202.667"/>
  <object id="2" x="432" y="-1.66683" width="191.333" height="202.667"/>
  <object id="3" x="559.5" y="197" width="33" height="9.5"/>
  <object id="5" x="319.75" y="196.375" width="32" height="10.75"/>
  <object id="8" x="68" y="55.4545" width="11.8182" height="8.36364"/>
  <object id="9" x="54.7273" y="-0.545455" width="2.72727" height="368.341"/>
  <object id="10" x="54.5" y="361" width="154.75" height="6.75"/>
  <object id="11" x="223.625" y="361.625" width="690.125" height="6.75"/>
  <object id="12" x="926.313" y="360.875" width="97.8125" height="6.75"/>
  <object id="14" x="800.75" y="151.5" width="223.75" height="8.75"/>
  <object id="15" x="559.375" y="151.625" width="223.75" height="8.75"/>
  <object id="16" x="849.091" y="90.5455" width="14.3636" height="4.90909"/>
  <object id="17" x="896.333" y="32.3333" width="79" height="72.3333"/>
  <object id="18" x="688.667" y="31.3333" width="78.6667" height="72.6667"/>
  <object id="19" x="726.375" y="329" width="7.25" height="6.875"/>
  <object id="20" x="823.813" y="234.625" width="6.125" height="6.4375"/>
  <object id="21" x="624.125" y="161.625" width="15" height="25.375"/>
  <object id="22" x="426" y="218.875" width="17.75" height="4.625"/>
  <object id="23" x="450" y="216.25" width="12" height="7.625"/>
  <object id="24" x="376.043" y="234.913" width="6.17391" height="7"/>
  <object id="25" x="311.043" y="329.043" width="6" height="6.86957"/>
  <object id="26" x="86.1818" y="325.636" width="4.54545" height="10.1818"/>
  <object id="27" x="389.455" y="159.727" width="24.5455" height="10"/>
  <object id="29" x="382.909" y="152.545" width="33.2727" height="7.27273"/>
  <object id="30" x="405" y="169.5" width="10.75" height="6.25"/>
  <object id="31" x="389.5" y="169.625" width="10.625" height="6.25"/>
  <object id="32" x="550" y="201.125" width="9.0625" height="7"/>
  <object id="33" x="385" y="40" width="10.75" height="7.75"/>
  <object id="34" x="161" y="227" width="15.0909" height="10.0909"/>
  <object id="36" x="336.818" y="323.545" width="15.4545" height="12.5455"/>
  <object id="37" x="65.0909" y="340.636" width="15.0909" height="11.6364"/>
  <object id="38" x="400.875" y="330.75" width="15.125" height="5.125"/>
  <object id="39" x="400.636" y="228.636" width="15.4545" height="11.5455"/>
  <object id="40" x="788.091" y="86" width="11.2727" height="9.81818"/>
  <object id="41" x="514.938" y="212.938" width="11.875" height="10.125"/>
  <object id="42" x="649.091" y="123.273" width="19.8182" height="4.90909"/>
  <object id="44" x="632" y="24.7273" width="38" height="23.0909"/>
  <object id="45" x="200.364" y="199.636" width="22.1818" height="4.72727"/>
  <object id="46" x="646" y="352.375" width="40.75" height="15"/>
  <object id="47" x="196" y="370.818" width="11.9091" height="13.2727"/>
  <object id="48" x="212" y="387.091" width="12.0909" height="13"/>
  <object id="49" x="226.909" y="371" width="12.0909" height="13.0909"/>
  <object id="50" x="193.636" y="387.182" width="12.2727" height="12.8182"/>
  <object id="51" x="226.636" y="387" width="12.0909" height="12.9091"/>
  <object id="52" x="790.182" y="330.727" width="9.63636" height="4.90909"/>
  <object id="53" x="374.091" y="331" width="9.63636" height="4.90909"/>
  <object id="54" x="214" y="235" width="9.63636" height="4.90909"/>
  <object id="55" x="550.091" y="234.818" width="9.63636" height="4.90909"/>
  <object id="56" x="975.875" y="67.375" width="12.25" height="12.5"/>
  <object id="57" x="767.625" y="51.125" width="12.375" height="12.75"/>
  <object id="61" x="984.182" y="215.182" width="4.81818" height="24.7273"/>
  <object id="62" x="850.125" y="113.25" width="14" height="14.875"/>
  <object id="63" x="416.909" y="68.8182" width="15.3636" height="22.0909"/>
  <object id="64" x="422.091" y="91" width="10.4545" height="5.18182"/>
  <object id="65" x="416.773" y="100.955" width="15.3636" height="22.0909"/>
  <object id="66" x="623.783" y="2.95652" width="12.1304" height="13.1739"/>
  <object id="67" x="675.375" y="60.2386" width="13.5" height="19.6364"/>
  <object id="68" x="882.875" y="60.5" width="13" height="19.5"/>
  <object id="72" x="963.25" y="331.25" width="59.375" height="20.625"/>
  <object id="73" x="978.125" y="27.25" width="23.625" height="34.5"/>
  <object id="74" x="849" y="36.6023" width="35.8295" height="14.2727"/>
  <object id="75" x="626.438" y="276.313" width="12.5" height="11.6875"/>
  <object id="76" x="912.125" y="103.125" width="15.5" height="8.875"/>
  <object id="77" x="691" y="98.875" width="12.875" height="8.4375"/>
  <object id="78" x="128" y="502.25" width="77.5" height="58"/>
  <object id="79" x="169.25" y="448.5" width="38.25" height="15.75"/>
  <object id="80" x="215.5" y="447.75" width="38.5" height="16.25"/>
  <object id="81" x="265.25" y="431.75" width="38" height="16.25"/>
  <object id="82" x="311" y="478.75" width="41" height="16.75"/>
  <object id="83" x="394.75" y="460" width="18.25" height="35"/>
  <object id="84" x="426.25" y="460" width="18.25" height="35.25"/>
  <object id="85" x="538" y="491.5" width="19.25" height="36"/>
  <object id="86" x="535.75" y="384.25" width="38.25" height="15.5"/>
  <object id="87" x="487" y="383.25" width="38" height="15.75"/>
  <object id="88" x="440" y="384.25" width="38" height="14"/>
  <object id="89" x="473.75" y="368.5" width="35.5" height="13.75"/>
  <object id="90" x="344" y="408.5" width="23" height="7.25"/>
  <object id="91" x="344" y="392.625" width="23" height="7.25"/>
  <object id="92" x="313.25" y="380.5" width="19.25" height="34"/>
  <object id="93" x="281.25" y="380" width="19.75" height="34.75"/>
  <object id="94" x="250" y="379.25" width="19.25" height="35.5"/>
  <object id="95" x="672.25" y="467.534" width="47.375" height="42.4659"/>
  <object id="96" x="758.75" y="559.125" width="41.125" height="15.875"/>
  <object id="97" x="804" y="567.25" width="11.625" height="8.25"/>
  <object id="98" x="816.25" y="486.068" width="78.25" height="41.1818"/>
  <object id="99" x="905.75" y="507.75" width="19.75" height="34.75"/>
  <object id="100" x="937.875" y="507.875" width="19.125" height="35"/>
  <object id="101" x="964.125" y="535.125" width="11.75" height="8.5"/>
  <object id="102" x="883.125" y="455.375" width="11.75" height="8.25"/>
  <object id="103" x="905.125" y="459.25" width="20.25" height="4.625"/>
  <object id="104" x="976.875" y="419.125" width="15.125" height="9.625"/>
  <object id="105" x="753" y="467.091" width="14.8182" height="9.81818"/>
  <object id="106" x="737.273" y="451" width="14.5455" height="10.0909"/>
  <object id="113" x="211.5" y="503" width="27.25" height="8.25"/>
  <object id="129" x="80.5493" y="585.099" width="920.228" height="6.63599"/>
  <object id="130" x="-0.0473485" y="713.216" width="872.792" height="6.75"/>
  <object id="131" x="998.295" y="585.091" width="2.72727" height="310.591"/>
  <object id="132" x="870.205" y="713.045" width="2.72727" height="181.932"/>
  <object id="134" x="600.875" y="267.25" width="24.75" height="9.5"/>
  <object id="135" x="584" y="287.875" width="24.75" height="9.5"/>
  <object id="136" x="593" y="277.375" width="24.75" height="9.5"/>
  <object id="137" x="609.5" y="257.75" width="24.75" height="9.5"/>
  <object id="139" x="393.25" y="394.438" width="24.75" height="9.5"/>
  <object id="140" x="376.375" y="415.063" width="24.75" height="9.5"/>
  <object id="141" x="385.375" y="404.563" width="24.75" height="9.5"/>
  <object id="142" x="401.875" y="384.938" width="24.75" height="9.5"/>
  <object id="147" x="489.028" y="463.972" width="24.75" height="9.5"/>
  <object id="148" x="516.403" y="495.256" width="24.75" height="9.5"/>
  <object id="149" x="508.835" y="484.097" width="24.75" height="9.5"/>
  <object id="150" x="497.222" y="473.585" width="24.75" height="9.5"/>
  <object id="151" x="553.392" y="448.335" width="24.75" height="9.5"/>
  <object id="152" x="580.767" y="479.619" width="24.75" height="9.5"/>
  <object id="153" x="573.199" y="468.46" width="24.75" height="9.5"/>
  <object id="154" x="561.586" y="457.948" width="24.75" height="9.5"/>
  <object id="155" x="9.51326" y="399.517" width="24.75" height="9.5"/>
  <object id="156" x="36.8883" y="430.801" width="24.75" height="9.5"/>
  <object id="157" x="29.3203" y="419.642" width="24.75" height="9.5"/>
  <object id="158" x="17.7073" y="409.13" width="24.75" height="9.5"/>
  <object id="159" x="745.688" y="431.858" width="24.75" height="9.5"/>
  <object id="160" x="773.063" y="463.142" width="24.75" height="9.5"/>
  <object id="161" x="765.495" y="451.983" width="24.75" height="9.5"/>
  <object id="162" x="753.881" y="441.471" width="24.75" height="9.5"/>
  <object id="163" x="876.515" y="377.19" width="16.75" height="9.5"/>
  <object id="164" x="871.985" y="392.31" width="16.75" height="9.5"/>
  <object id="165" x="845.015" y="377.19" width="16.75" height="9.5"/>
  <object id="166" x="840.485" y="392.31" width="16.75" height="9.5"/>
  <object id="167" x="460.799" y="473.509" width="16.75" height="9.5"/>
  <object id="168" x="456.269" y="488.628" width="16.75" height="9.5"/>
  <object id="169" x="285.223" y="473.649" width="16.75" height="9.5"/>
  <object id="170" x="280.693" y="488.768" width="16.75" height="9.5"/>
  <object id="171" x="104.435" y="390.418" width="16.75" height="9.5"/>
  <object id="172" x="109.36" y="406.264" width="16.75" height="9.5"/>
  <object id="175" x="-0.03125" y="585.5" width="21.8125" height="6.75"/>
  <object id="176" x="40.1364" y="570.028" width="24.75" height="9.5"/>
  <object id="177" x="23.2614" y="590.653" width="24.75" height="9.5"/>
  <object id="178" x="32.2614" y="580.153" width="24.75" height="9.5"/>
  <object id="179" x="48.7614" y="560.528" width="23.6591" height="9.5"/>
  <object id="180" x="58.125" y="459.375" width="18.5" height="35"/>
  <object id="181" x="7.875" y="496" width="21.5" height="31.625"/>
  <object id="182" x="9.27273" y="544.091" width="38.1818" height="15.7273"/>
  <object id="202" x="562" y="611" width="13.1739" height="10.2609"/>
  <object id="203" x="353.636" y="550.545" width="106.909" height="57.4545"/>
  <object id="204" x="768.909" y="617.455" width="41.2727" height="17.0909"/>
  <object id="205" x="796.617" y="626.963" width="16.75" height="9.5"/>
  <object id="206" x="792.087" y="642.082" width="16.75" height="9.5"/>
  <object id="207" x="904.435" y="689.509" width="16.75" height="9.5"/>
  <object id="208" x="909.36" y="705.355" width="16.75" height="9.5"/>
  <object id="209" x="910.625" y="689.875" width="31.625" height="13.75"/>
  <object id="210" x="928.545" y="601.636" width="59.4545" height="20.7273"/>
  <object id="211" x="626.182" y="619.091" width="59.0909" height="19.8182"/>
  <object id="212" x="649.818" y="673.455" width="37.0909" height="13.4545"/>
  <object id="213" x="488.983" y="654.926" width="24.75" height="9.5"/>
  <object id="214" x="516.358" y="686.21" width="24.75" height="9.5"/>
  <object id="215" x="508.79" y="675.051" width="24.75" height="9.5"/>
  <object id="216" x="497.177" y="664.539" width="24.75" height="9.5"/>
  <object id="217" x="332" y="608.5" width="35.375" height="14.125"/>
  <object id="218" x="314.625" y="604.625" width="17.375" height="34"/>
  <object id="219" x="288.091" y="659.182" width="14.4545" height="9.90909"/>
  <object id="220" x="195.091" y="681.636" width="59.4545" height="20.9091"/>
  <object id="221" x="83.5" y="666.5" width="58.5" height="19.75"/>
  <object id="222" x="265.417" y="650.688" width="24.75" height="9.5"/>
  <object id="223" x="248.542" y="671.313" width="24.75" height="9.5"/>
  <object id="224" x="257.542" y="660.813" width="24.75" height="9.5"/>
  <object id="225" x="274.042" y="641.188" width="24.75" height="9.5"/>
  <object id="228" x="199.871" y="625.035" width="16.75" height="9.5"/>
  <object id="229" x="204.796" y="640.881" width="16.75" height="9.5"/>
  <object id="234" x="640.997" y="259.663" width="10.1929" height="12.1739"/>
  <object id="235" x="944.904" y="339.64" width="10.1929" height="12.1739"/>
  <object id="236" x="176.81" y="307.663" width="10.1929" height="12.1739"/>
  <object id="240" name="barrel" x="688" y="544" width="16" height="16">
   <properties>
    <property name="type" value="blue"/>
   </properties>
  </object>
  <object id="241" x="688" y="547.64" width="10.1929" height="12.1739"/>
  <object id="242" name="barrel" x="80" y="416" width="16" height="16">
   <properties>
    <property name="type" value="blue"/>
   </properties>
  </object>
  <object id="243" x="80.9091" y="419.367" width="10.1929" height="12.1739"/>
 </objectgroup>
 <layer id="2" name="path" width="64" height="56">
  <data encoding="csv">
0,0,0,0,0,277,289,278,289,279,0,0,0,0,0,0,0,0,0,0,0,0,0,0,0,0,0,0,0,0,0,0,0,0,0,0,0,0,0,0,0,0,0,0,0,0,0,0,0,0,0,0,0,0,0,0,0,0,0,0,0,0,0,0,
0,0,0,0,0,277,289,278,289,279,0,0,0,0,0,0,0,0,0,0,0,0,0,0,0,0,0,0,0,0,0,0,0,0,0,0,0,0,0,0,0,0,0,0,0,0,0,0,0,0,0,0,0,0,0,0,0,0,0,0,0,0,0,0,
0,0,0,0,0,277,289,278,289,279,0,0,0,0,0,0,0,0,0,0,0,0,0,0,0,0,0,0,0,0,0,0,0,0,0,0,0,0,0,0,0,0,0,0,0,0,0,0,0,0,0,0,0,0,0,0,0,0,0,0,0,0,0,0,
0,0,0,0,0,277,289,278,289,279,0,0,0,0,0,0,0,0,0,0,0,0,0,0,0,0,0,0,0,0,0,0,0,0,0,0,0,0,0,0,0,0,0,0,0,0,0,0,0,0,0,0,0,0,0,0,0,0,0,0,0,0,0,0,
0,0,0,0,0,277,289,278,289,279,0,0,0,0,0,0,0,0,0,0,0,0,0,0,0,0,0,0,0,0,0,0,0,0,0,0,0,0,0,0,0,0,0,0,0,0,0,0,0,0,0,0,0,0,0,0,0,0,0,0,0,0,0,0,
0,0,0,0,0,277,289,278,289,279,0,0,0,0,0,0,0,0,0,0,0,0,0,0,0,0,0,0,0,0,0,0,0,0,0,0,0,0,0,0,0,0,0,0,0,0,0,0,0,0,0,0,0,0,0,0,0,0,0,0,0,0,0,0,
0,0,0,0,0,277,289,278,289,279,0,0,0,0,0,0,0,0,0,0,0,0,0,0,0,0,0,0,0,0,0,0,0,0,0,0,0,0,0,0,0,0,0,0,0,0,0,0,0,0,0,0,0,0,0,0,0,0,0,0,0,0,0,0,
0,0,0,0,0,277,289,278,289,279,0,0,0,0,0,0,0,0,0,0,0,0,0,0,0,0,0,0,0,0,0,0,0,0,0,0,0,0,0,0,0,0,0,0,0,0,0,0,0,0,0,0,0,0,0,0,0,0,0,0,0,0,0,0,
0,0,0,0,0,277,289,278,289,279,0,0,0,0,0,0,0,0,0,0,0,0,0,0,0,0,0,0,0,0,0,0,0,0,0,0,0,0,0,0,0,0,0,0,0,0,0,0,0,0,0,0,0,0,0,0,0,0,0,0,0,0,0,0,
0,0,0,0,0,277,289,278,289,279,0,0,0,0,0,0,0,0,0,0,0,0,0,0,0,0,0,0,0,0,0,0,0,0,0,0,0,0,0,0,0,0,0,0,0,0,0,0,0,0,0,0,0,0,0,0,0,0,0,0,0,0,0,0,
0,0,0,0,0,277,289,278,289,279,0,0,0,0,0,0,0,0,0,0,0,0,0,0,0,0,0,0,0,0,0,0,0,0,0,0,0,0,0,0,0,0,0,0,0,0,0,0,0,0,0,0,0,0,0,0,0,0,0,0,0,0,0,0,
0,0,0,0,0,277,289,278,289,279,0,0,0,0,0,0,0,0,0,0,0,0,0,0,0,0,0,0,0,0,0,0,0,0,0,0,0,0,0,0,0,0,0,0,0,0,0,0,0,0,0,0,0,0,0,0,0,0,0,0,0,0,0,0,
0,0,0,0,0,277,289,278,289,279,0,0,0,0,0,0,0,0,0,0,0,0,0,0,0,0,0,0,0,0,0,0,0,0,0,0,0,0,0,0,0,0,0,0,0,0,0,0,0,0,0,0,0,0,0,0,0,0,0,0,0,0,0,0,
0,0,0,0,0,277,289,278,289,279,0,0,0,0,0,0,0,0,0,0,0,0,0,0,0,0,0,0,0,0,0,0,0,0,0,0,0,0,0,0,0,0,0,0,0,0,0,0,0,0,0,0,0,0,0,0,0,0,0,0,0,0,0,0,
0,0,0,0,0,277,289,278,289,279,0,0,0,0,0,0,0,0,0,0,0,0,0,0,0,0,0,0,0,0,0,0,0,0,0,0,0,0,0,0,0,0,0,0,0,0,0,0,0,0,0,0,0,0,0,0,0,0,0,0,0,0,0,0,
0,0,0,0,0,277,289,278,289,273,262,262,262,262,262,262,262,262,262,262,262,262,262,262,262,262,262,262,262,262,262,262,262,262,262,262,262,262,262,262,262,262,262,262,262,262,262,262,262,262,262,262,262,262,262,262,262,262,262,262,262,262,262,262,
0,0,0,0,0,277,289,278,275,290,290,290,290,290,290,290,290,290,290,290,290,290,290,290,290,290,290,290,290,290,290,290,290,290,290,290,290,290,290,290,290,290,290,290,290,290,290,290,290,290,290,290,290,290,290,290,290,290,290,290,290,290,290,290,
0,0,0,0,0,277,289,278,278,278,278,278,278,278,278,278,278,278,278,278,278,278,278,278,278,278,278,278,278,278,278,278,278,278,278,278,278,278,278,278,278,278,278,278,278,278,278,278,278,278,278,278,278,278,278,278,278,278,278,278,278,278,278,278,
0,0,0,0,0,277,275,290,290,290,290,290,290,290,290,290,290,290,290,290,290,290,290,290,290,290,290,290,290,290,290,290,290,290,290,290,290,290,290,290,290,290,290,290,290,290,290,290,290,290,290,290,290,290,290,290,290,290,290,290,290,290,290,290,
0,0,0,0,0,293,294,294,294,294,294,294,294,294,294,294,294,294,294,294,294,294,294,294,294,294,294,294,294,294,294,294,294,294,294,294,294,294,294,294,294,294,294,294,294,294,294,294,294,294,294,294,294,294,294,294,294,294,294,294,294,294,294,294,
0,0,0,0,0,0,0,0,0,0,0,0,0,0,0,0,0,0,0,0,0,0,0,0,0,0,0,0,0,0,0,0,0,0,0,0,0,0,0,0,0,0,0,0,0,0,0,0,0,0,0,0,0,0,0,0,0,0,0,0,0,0,0,0,
0,0,0,0,0,0,0,0,0,0,0,0,0,0,0,0,0,0,0,0,0,0,0,0,0,0,0,0,0,0,0,0,0,0,0,0,0,0,0,0,0,0,0,0,0,0,0,0,0,0,0,0,0,0,0,0,0,0,0,0,0,0,0,0,
0,0,0,0,0,0,0,0,0,0,0,0,0,0,0,0,0,0,0,0,0,0,0,0,0,0,0,0,0,0,0,0,0,0,0,0,0,0,0,0,0,0,0,0,0,0,0,0,0,0,0,0,0,0,0,0,0,0,0,0,0,0,0,0,
0,0,0,0,0,0,0,0,0,0,0,0,0,0,0,0,0,0,0,0,0,0,0,0,0,0,0,0,0,0,0,0,0,0,0,0,0,0,0,0,0,0,0,0,0,0,0,0,0,0,0,0,0,0,0,0,0,0,0,0,0,0,0,0,
0,0,0,0,0,0,0,0,0,0,0,0,0,0,0,0,0,0,0,0,0,0,0,0,0,0,0,0,0,0,0,0,0,0,0,0,0,0,0,0,0,0,0,0,0,0,0,0,0,0,0,0,0,0,0,0,0,0,0,0,0,0,0,0,
0,0,0,0,0,0,0,0,0,0,0,0,0,0,0,0,0,0,0,0,0,0,0,0,0,0,0,0,0,0,0,0,0,0,0,0,0,0,0,0,0,0,0,0,0,0,0,0,0,0,0,0,0,0,0,0,0,0,0,0,0,0,0,0,
0,0,0,0,0,0,0,0,0,0,0,0,0,0,0,0,0,0,0,0,0,0,0,0,0,0,0,0,0,0,0,0,0,0,0,0,0,0,0,0,0,0,0,0,0,0,0,0,0,0,0,0,0,0,0,0,0,0,0,0,0,0,0,0,
0,0,0,0,0,0,0,0,0,0,0,0,0,0,0,0,0,0,0,0,0,0,0,0,0,0,0,0,0,0,0,0,0,0,0,0,0,0,0,0,0,0,0,0,0,0,0,0,0,0,0,0,0,0,0,0,0,0,0,0,0,0,0,0,
0,0,0,0,0,0,0,0,0,0,0,0,0,0,0,0,0,0,0,0,0,0,0,0,0,0,0,0,0,0,0,0,0,0,0,0,0,0,0,0,0,0,0,0,0,0,0,0,0,0,0,0,0,0,0,0,0,0,0,0,0,0,0,0,
0,0,0,0,0,0,0,0,0,0,0,0,0,0,0,0,0,0,0,0,0,0,0,0,0,0,0,0,0,0,0,0,0,0,0,0,0,0,0,0,0,0,0,0,0,0,0,0,0,0,0,0,0,0,0,0,0,0,0,0,0,0,0,0,
0,0,0,0,0,0,0,0,0,0,0,0,0,0,0,0,0,0,0,0,0,0,0,0,0,0,0,0,0,0,0,0,0,0,0,0,0,0,0,0,0,0,0,0,0,0,0,0,0,0,0,0,0,0,0,0,0,0,0,0,0,0,0,0,
0,0,0,0,0,0,0,0,0,0,0,0,0,0,0,0,0,0,0,0,0,0,0,0,0,0,0,0,0,0,0,0,0,0,0,0,0,0,0,0,0,0,0,0,0,0,0,0,0,0,0,0,0,0,0,0,0,0,0,0,0,0,0,0,
0,0,0,0,0,0,0,0,0,0,0,0,0,0,0,0,0,0,0,0,0,0,0,0,0,0,0,0,0,0,0,0,0,0,0,0,0,0,0,0,0,0,0,0,0,0,0,0,0,0,0,0,0,0,0,0,0,0,0,0,0,0,0,0,
0,0,0,0,0,0,0,0,0,0,0,0,0,0,0,0,0,0,0,0,0,0,0,0,0,0,0,0,0,0,0,0,0,0,0,0,0,0,0,0,0,0,0,0,0,0,0,0,0,0,0,0,0,0,0,0,0,0,0,0,0,0,0,0,
0,0,0,0,0,0,0,0,0,0,0,0,0,0,0,0,0,0,0,0,0,0,0,0,0,0,0,0,0,0,0,0,0,0,0,0,0,0,0,0,0,0,0,0,0,0,0,0,0,0,0,0,0,0,0,0,0,0,0,0,0,0,0,0,
0,0,0,0,0,0,0,0,0,0,0,0,0,0,0,0,0,0,0,0,0,0,0,0,0,0,0,0,0,0,0,0,0,0,0,0,0,0,0,0,0,0,0,0,0,0,0,0,0,0,0,0,0,0,0,0,0,0,0,0,0,0,0,0,
0,0,0,0,0,0,0,0,0,0,0,0,0,0,0,0,0,0,0,0,0,0,0,0,0,0,0,0,0,0,0,0,0,0,0,0,0,0,0,0,0,0,0,0,0,0,0,0,0,0,0,0,0,0,0,0,0,0,0,0,0,0,0,0,
0,0,0,0,0,0,0,0,0,0,0,0,0,0,0,0,0,0,0,0,0,0,0,0,0,0,0,0,0,0,0,0,0,0,0,0,0,0,0,0,0,0,0,0,0,0,0,0,0,0,0,0,0,0,0,0,0,0,0,0,0,0,0,0,
2147483910,2147483910,2147483910,2147483910,2147483910,2147483910,2147483910,2147483910,2147483910,2147483910,2147483910,0,0,0,0,2147483910,2147483910,2147483910,2147483910,2147483910,2147483910,2147483910,2147483910,2147483910,2147483910,0,2147483910,2147483910,2147483910,2147483910,2147483910,2147483910,2147483910,2147483910,2147483910,2147483910,2147483910,2147483910,2147483910,2147483910,2147483910,2147483910,2147483910,2147483910,2147483910,2147483910,2147483910,2147483910,2147483910,2147483910,2147483910,2147483910,2147483910,2147483910,2147483910,2147483910,2147483910,0,0,0,0,0,0,0,
2147483938,2147483938,2147483938,2147483938,2147483938,2147483938,2147483938,2147483938,2147483938,2147483938,2147483938,2147483938,0,0,2147483938,2147483938,2147483938,2147483938,2147483938,2147483938,2147483938,2147483938,2147483938,2147483938,2147483938,2147483938,2147483938,2147483938,2147483938,2147483938,2147483938,2147483938,2147483938,2147483938,2147483938,2147483938,2147483938,2147483938,2147483938,2147483938,2147483938,2147483938,2147483938,2147483938,2147483938,2147483938,2147483938,2147483938,2147483938,2147483938,2147483938,2147483938,2147483938,2147483938,2147483938,2147483938,2147483938,2147483938,2147483938,0,0,0,0,0,
2147483926,2147483926,2147483926,2147483926,2147483926,2147483926,2147483926,2147483926,2147483926,2147483926,0,0,0,2147483926,2147483926,2147483926,2147483926,2147483926,2147483926,2147483926,2147483926,2147483926,2147483926,2147483926,2147483926,2147483926,2147483926,2147483926,2147483926,2147483926,2147483926,2147483926,2147483926,2147483926,2147483926,2147483926,2147483926,2147483926,2147483926,2147483926,2147483926,2147483926,2147483926,2147483926,2147483926,2147483926,2147483926,2147483926,2147483926,2147483926,2147483926,2147483926,2147483926,2147483926,2147483926,2147483926,2147483926,2147483926,2147483926,2147483937,0,0,0,0,
2147483938,2147483938,2147483938,2147483938,2147483938,2147483938,2147483938,2147483938,2147483938,0,0,2147483938,2147483938,2147483938,2147483938,2147483938,2147483938,2147483938,2147483938,2147483938,2147483938,2147483938,2147483938,2147483938,2147483938,2147483938,2147483938,2147483938,2147483938,2147483938,2147483938,2147483938,2147483938,2147483938,2147483938,2147483938,2147483938,2147483938,2147483938,2147483938,2147483938,2147483938,2147483938,2147483938,2147483938,2147483938,2147483938,2147483938,2147483938,2147483938,2147483938,2147483938,2147483938,2147483938,2147483938,2147483938,2147483938,2147483907,2147483926,2147483937,2147483925,0,0,0,
2147483942,2147483942,2147483942,2147483942,2147483942,2147483942,2147483942,2147483942,0,0,0,2147483942,2147483942,2147483942,2147483942,2147483942,2147483942,2147483942,2147483942,2147483942,2147483942,2147483942,2147483942,2147483942,2147483942,2147483942,2147483942,2147483942,2147483942,2147483942,2147483942,2147483942,2147483942,2147483942,2147483942,2147483942,2147483942,2147483942,2147483942,0,2147483942,2147483942,2147483942,2147483942,2147483942,2147483942,2147483942,2147483942,2147483942,2147483942,2147483942,2147483942,2147483942,2147483942,2147483942,0,0,2147483937,2147483926,2147483937,2147483925,0,0,0,
0,0,0,0,0,0,0,0,0,0,0,0,0,0,0,0,0,0,0,0,0,0,0,0,0,0,0,0,0,0,0,0,0,0,0,0,0,0,0,0,0,0,0,0,0,0,0,0,0,0,0,0,0,0,0,0,0,0,2147483926,2147483937,2147483925,0,0,0,
0,0,0,0,0,0,0,0,0,0,0,0,0,0,0,0,0,0,0,0,0,0,0,0,0,0,0,0,0,0,0,0,0,0,0,0,0,0,0,0,0,0,0,0,0,0,0,0,0,0,0,0,0,0,0,0,2147483927,2147483937,2147483926,2147483937,2147483925,0,0,0,
0,0,0,0,0,0,0,0,0,0,0,0,0,0,0,0,0,0,0,0,0,0,0,0,0,0,0,0,0,0,0,0,0,0,0,0,0,0,0,0,0,0,0,0,0,0,0,0,0,0,0,0,0,0,0,0,2147483927,2147483937,2147483926,2147483937,2147483925,0,0,0,
0,0,0,0,0,0,0,0,0,0,0,0,0,0,0,0,0,0,0,0,0,0,0,0,0,0,0,0,0,0,0,0,0,0,0,0,0,0,0,0,0,0,0,0,0,0,0,0,0,0,0,0,0,0,0,0,2147483927,2147483937,2147483926,2147483937,2147483925,0,0,0,
0,0,0,0,0,0,0,0,0,0,0,0,0,0,0,0,0,0,0,0,0,0,0,0,0,0,0,0,0,0,0,0,0,0,0,0,0,0,0,0,0,0,0,0,0,0,0,0,0,0,0,0,0,0,0,0,2147483927,2147483937,2147483926,2147483937,2147483925,0,0,0,
0,0,0,0,0,0,0,0,0,0,0,0,0,0,0,0,0,0,0,0,0,0,0,0,0,0,0,0,0,0,0,0,0,0,0,0,0,0,0,0,0,0,0,0,0,0,0,0,0,0,0,0,0,0,0,0,2147483927,2147483937,2147483926,2147483937,2147483925,0,0,0,
0,0,0,0,0,0,0,0,0,0,0,0,0,0,0,0,0,0,0,0,0,0,0,0,0,0,0,0,0,0,0,0,0,0,0,0,0,0,0,0,0,0,0,0,0,0,0,0,0,0,0,0,0,0,0,0,2147483927,2147483937,2147483926,2147483937,2147483925,0,0,0,
0,0,0,0,0,0,0,0,0,0,0,0,0,0,0,0,0,0,0,0,0,0,0,0,0,0,0,0,0,0,0,0,0,0,0,0,0,0,0,0,0,0,0,0,0,0,0,0,0,0,0,0,0,0,0,0,2147483927,2147483937,2147483926,2147483937,2147483925,0,0,0,
0,0,0,0,0,0,0,0,0,0,0,0,0,0,0,0,0,0,0,0,0,0,0,0,0,0,0,0,0,0,0,0,0,0,0,0,0,0,0,0,0,0,0,0,0,0,0,0,0,0,0,0,0,0,0,0,2147483927,2147483937,2147483926,2147483937,2147483925,0,0,0,
0,0,0,0,0,0,0,0,0,0,0,0,0,0,0,0,0,0,0,0,0,0,0,0,0,0,0,0,0,0,0,0,0,0,0,0,0,0,0,0,0,0,0,0,0,0,0,0,0,0,0,0,0,0,0,0,2147483927,2147483937,2147483926,2147483937,2147483925,0,0,0,
0,0,0,0,0,0,0,0,0,0,0,0,0,0,0,0,0,0,0,0,0,0,0,0,0,0,0,0,0,0,0,0,0,0,0,0,0,0,0,0,0,0,0,0,0,0,0,0,0,0,0,0,0,0,0,0,2147483927,2147483937,2147483926,2147483937,2147483925,0,0,0,
0,0,0,0,0,0,0,0,0,0,0,0,0,0,0,0,0,0,0,0,0,0,0,0,0,0,0,0,0,0,0,0,0,0,0,0,0,0,0,0,0,0,0,0,0,0,0,0,0,0,0,0,0,0,0,0,2147483927,2147483937,2147483926,2147483937,2147483925,0,0,0,
0,0,0,0,0,0,0,0,0,0,0,0,0,0,0,0,0,0,0,0,0,0,0,0,0,0,0,0,0,0,0,0,0,0,0,0,0,0,0,0,0,0,0,0,0,0,0,0,0,0,0,0,0,0,0,0,2147483927,2147483937,2147483926,2147483937,2147483925,0,0,0
</data>
 </layer>
 <layer id="9" name="greenery" width="64" height="56">
  <data encoding="csv">
0,0,0,0,0,0,0,0,0,0,0,0,0,0,0,0,0,0,0,0,0,0,0,0,0,0,0,0,0,0,0,0,0,0,0,0,0,0,0,0,0,0,0,0,0,0,0,0,0,0,0,0,0,0,0,0,0,0,0,0,0,0,0,0,
0,0,0,0,0,0,0,0,0,0,0,0,0,0,0,0,0,0,0,0,0,0,0,0,0,0,0,0,0,0,0,0,0,0,0,0,0,0,0,0,0,0,0,0,0,0,0,0,0,0,0,0,0,0,0,0,0,0,0,0,0,0,0,0,
0,0,0,0,0,0,0,0,0,0,0,0,0,0,0,0,0,0,0,0,0,0,0,0,0,0,0,0,0,0,0,0,0,0,0,0,0,0,0,0,0,0,0,0,0,0,0,0,0,0,0,0,0,0,0,0,0,0,0,0,0,0,0,0,
0,0,0,0,0,0,0,0,0,0,0,0,0,0,0,0,0,0,0,0,0,0,0,0,0,0,0,0,0,0,0,0,0,0,0,0,0,0,0,0,0,0,0,0,0,0,0,0,0,0,0,0,0,0,0,0,0,0,0,0,0,0,0,0,
0,0,0,0,0,0,0,0,0,0,0,0,0,0,0,0,0,0,0,0,0,0,0,0,0,0,0,0,0,0,0,0,0,0,0,0,0,0,0,0,0,0,0,0,0,0,0,0,0,5150,0,0,0,0,0,0,0,0,0,0,0,0,0,0,
0,0,0,0,0,0,0,0,0,0,0,0,0,0,0,0,0,0,0,0,0,0,0,0,0,0,0,0,0,0,0,0,0,0,0,0,0,0,0,0,0,0,0,0,0,0,0,0,0,0,0,0,0,0,0,0,0,0,0,0,0,0,0,0,
0,0,0,0,0,0,0,0,0,0,0,0,0,0,0,0,0,0,0,0,0,0,0,0,0,0,0,0,0,0,0,0,0,0,0,0,0,0,0,0,0,0,0,0,0,0,0,0,0,0,0,0,0,0,0,0,0,0,0,0,0,0,0,0,
0,0,0,0,0,0,0,0,0,0,0,0,0,0,0,0,0,0,0,0,0,0,0,0,5166,0,0,0,0,0,0,0,0,0,0,0,0,0,0,0,0,0,0,0,0,0,0,5166,0,0,0,0,0,0,0,0,0,0,0,0,0,0,0,0,
0,0,0,0,0,0,0,5146,0,0,0,0,0,0,0,0,0,0,0,0,0,0,0,0,0,0,0,0,0,0,0,0,0,0,0,0,0,0,0,0,0,0,0,0,0,0,0,0,0,0,0,0,0,0,0,0,0,0,0,0,0,0,0,0,
0,0,0,0,0,0,0,0,0,0,0,0,0,0,0,0,0,0,0,0,0,0,0,0,0,0,0,0,0,0,0,0,0,0,0,0,0,0,0,0,0,0,0,0,0,0,0,0,0,0,0,0,0,0,0,0,0,0,0,0,0,0,0,0,
0,0,0,0,0,0,0,0,0,0,0,0,0,0,0,0,0,0,0,0,0,0,0,0,0,0,0,0,0,0,0,0,0,0,0,0,0,0,0,0,0,0,0,0,0,0,0,0,0,0,0,0,0,0,0,0,0,0,0,0,0,0,0,0,
0,0,0,0,0,0,0,0,0,0,0,0,0,0,0,0,0,0,0,0,0,0,0,0,0,0,0,0,0,0,0,0,0,0,0,0,0,0,0,0,0,0,0,0,0,0,0,0,0,0,0,0,0,0,0,0,0,0,0,0,0,0,0,0,
0,0,0,0,0,0,0,0,0,0,0,0,0,0,0,0,0,0,0,0,0,0,0,0,0,0,0,0,0,0,0,0,0,0,0,0,0,0,0,0,0,0,0,0,0,0,0,0,0,0,0,0,0,0,0,0,0,0,0,0,0,0,0,0,
0,0,0,0,0,0,0,0,0,0,0,0,0,0,0,0,0,0,0,0,0,0,0,0,0,0,0,0,0,0,0,0,0,0,0,0,0,0,0,2689,0,0,0,0,0,5197,0,0,0,0,0,0,0,0,0,0,0,0,0,0,0,0,0,0,
0,0,0,0,0,0,0,0,0,0,0,0,0,0,0,0,0,0,0,0,0,0,0,0,0,5194,0,0,0,0,0,0,0,0,0,0,0,0,0,0,0,0,0,0,0,0,0,0,0,0,0,0,0,0,0,0,0,0,0,0,0,0,0,0,
0,0,0,0,0,0,0,0,0,0,0,0,0,0,0,0,0,0,0,0,0,0,0,0,0,0,0,0,0,0,0,0,0,0,0,0,0,0,0,0,0,0,0,0,0,0,0,0,0,0,0,0,0,0,0,0,0,0,0,0,0,0,0,0,
0,0,0,0,0,0,0,0,0,0,0,0,0,0,0,0,0,0,0,0,0,0,0,0,0,0,0,0,0,0,0,0,0,0,0,0,0,0,0,0,0,0,0,0,0,0,0,0,0,0,0,0,0,0,0,0,0,0,0,0,0,0,0,0,
0,0,0,0,0,0,0,0,0,0,0,0,0,0,0,0,0,0,0,0,0,0,0,0,0,0,0,5146,0,0,0,0,0,0,0,0,0,0,0,0,0,0,0,0,0,0,0,0,0,0,0,0,0,0,5130,0,0,0,0,0,0,0,0,0,
0,0,0,0,0,0,0,0,0,0,0,0,0,0,0,0,0,0,0,0,0,0,0,0,0,0,0,0,0,0,0,0,0,0,0,0,0,0,0,0,0,0,0,0,0,0,0,0,0,0,0,0,0,0,0,0,0,0,0,0,0,0,0,0,
0,0,0,0,0,0,0,0,0,0,0,0,0,0,0,0,0,0,0,0,0,0,0,0,0,0,0,0,0,0,0,0,0,0,0,0,0,0,0,0,0,0,0,0,0,0,0,0,0,0,0,0,0,0,0,0,0,0,0,0,0,0,0,0,
0,0,0,0,0,0,0,0,0,0,0,2689,0,0,0,0,0,0,0,0,0,5193,0,0,0,0,0,0,0,0,0,0,0,0,0,0,0,0,0,0,0,0,0,0,0,0,0,0,0,0,0,0,0,0,0,0,0,0,0,0,0,0,0,0,
0,0,0,0,5193,0,0,0,0,0,0,0,0,0,0,0,0,0,0,0,0,0,0,0,0,0,0,0,0,0,0,0,0,0,0,0,0,0,0,0,0,0,0,0,0,0,0,0,0,0,0,0,0,0,0,0,0,0,0,0,0,0,0,0,
0,0,0,0,0,0,0,0,0,0,0,0,0,0,0,0,0,0,0,0,0,0,0,0,0,0,0,0,0,0,0,0,0,0,0,0,0,0,0,0,0,0,0,0,0,0,0,0,0,0,0,0,0,0,0,0,0,0,0,0,0,0,0,0,
0,0,0,0,0,0,0,0,0,0,0,0,0,0,0,0,0,0,0,0,0,0,0,0,0,0,0,0,0,0,0,0,0,0,0,0,0,0,0,0,0,0,0,0,0,0,0,0,0,0,0,0,0,0,0,0,0,0,0,0,0,0,0,0,
0,0,0,0,0,0,0,0,0,0,0,0,0,0,0,0,0,0,0,0,0,0,0,0,0,0,0,0,0,0,0,0,0,0,0,0,0,0,0,0,0,0,0,0,0,0,0,0,0,0,0,0,0,0,0,0,0,0,0,0,0,0,0,0,
0,0,0,0,0,0,0,0,0,0,0,0,0,0,0,0,0,0,0,0,0,0,0,0,0,0,0,0,0,0,0,0,0,0,0,0,0,0,0,0,0,0,0,0,0,0,0,0,0,0,0,0,0,0,0,0,0,0,0,0,588,589,590,0,
0,0,0,0,0,0,0,0,0,0,0,0,0,0,0,0,0,0,0,0,0,0,0,0,0,0,0,0,0,0,0,0,0,0,0,0,0,0,0,0,0,0,0,0,0,0,0,0,0,0,0,0,0,0,0,0,0,0,0,0,604,605,606,0,
0,0,0,0,0,0,0,0,0,0,0,0,0,0,0,0,0,0,0,0,0,0,0,0,0,0,0,0,0,0,0,0,0,0,0,0,0,0,0,0,0,0,0,0,0,588,589,590,0,0,0,0,0,0,588,589,590,0,0,0,620,621,622,0,
0,0,0,0,0,0,0,0,0,0,0,0,0,0,0,0,0,0,0,0,0,0,0,0,0,0,0,0,0,0,0,0,0,0,0,0,0,0,0,0,0,0,0,0,0,604,605,605,590,0,0,0,0,0,604,605,606,0,0,0,0,0,0,0,
0,0,0,0,0,0,0,0,0,0,0,0,0,0,0,0,0,0,0,0,0,0,0,0,0,0,0,0,0,0,0,0,0,0,0,0,0,0,0,0,0,0,0,0,0,604,605,605,606,0,0,0,0,0,620,621,622,0,0,0,0,0,0,0,
0,0,0,0,0,0,0,0,0,0,0,0,0,0,0,0,0,0,0,0,0,0,0,0,0,0,0,0,0,0,0,0,0,0,0,0,0,0,0,0,0,0,0,0,0,620,621,621,622,0,0,0,0,0,0,0,0,0,0,0,0,0,0,0,
0,0,0,0,0,0,0,0,0,0,0,0,0,0,0,0,0,0,0,0,0,0,0,0,0,0,0,0,0,0,0,0,0,0,0,0,0,0,0,0,0,0,0,0,0,0,0,0,0,0,0,0,0,0,0,0,0,0,0,0,0,0,0,0,
0,0,0,0,0,0,0,0,0,0,0,0,0,0,0,0,0,0,0,0,0,0,0,0,0,0,0,0,0,0,0,0,0,0,0,0,0,0,0,0,0,0,0,0,0,0,0,0,0,0,0,0,0,0,0,0,0,0,0,588,589,590,0,0,
0,0,0,0,0,0,0,0,0,0,0,0,0,0,0,0,0,0,0,0,0,0,0,0,0,0,0,0,0,0,0,0,0,0,0,0,0,0,0,0,0,0,0,0,0,0,0,0,0,0,0,0,0,0,0,0,0,0,0,604,605,606,0,0,
0,0,0,0,0,0,0,0,0,0,0,0,0,0,0,0,0,0,0,0,0,0,0,0,0,0,0,0,0,0,0,0,0,0,0,0,0,0,0,0,0,0,0,0,0,0,0,0,0,588,589,590,0,0,0,0,0,0,0,620,621,622,0,0,
0,0,0,0,0,0,0,0,0,0,0,0,0,0,0,0,0,0,0,0,0,0,0,0,0,0,0,0,0,0,0,0,0,0,0,0,0,0,0,0,0,0,0,0,0,0,0,0,0,604,605,606,0,0,0,0,0,0,0,0,0,0,0,0,
0,0,0,0,0,0,0,0,0,0,0,0,0,0,0,0,0,0,0,0,0,0,0,0,0,0,0,0,0,0,0,0,0,0,0,0,0,0,0,0,0,0,0,0,0,0,0,0,0,620,621,622,0,0,0,0,0,0,0,0,0,0,0,0,
0,0,0,0,0,0,0,0,0,0,0,0,0,0,0,0,0,0,0,0,0,0,0,0,0,0,0,0,0,0,0,0,0,0,588,589,590,0,0,0,0,0,0,0,0,0,0,0,0,0,0,0,0,0,0,0,0,0,0,0,0,0,0,0,
0,0,0,0,0,0,0,0,0,0,0,0,0,0,0,0,0,0,0,0,0,0,0,0,0,0,0,0,0,0,0,0,0,0,604,605,606,0,0,0,0,0,0,0,0,0,0,0,0,0,0,0,0,0,0,0,0,0,0,0,0,0,0,0,
0,0,0,0,0,0,0,0,0,0,0,0,0,0,0,0,0,0,0,0,0,0,0,0,0,0,0,0,0,0,0,0,0,0,620,621,622,0,0,0,0,0,0,0,0,0,0,0,0,0,0,0,0,0,0,0,0,0,0,0,0,0,0,0,
0,0,0,0,0,0,0,0,0,0,0,0,0,0,0,0,0,588,589,590,0,0,0,0,0,0,0,0,0,0,0,0,0,0,0,0,0,0,0,0,0,0,0,0,0,0,0,0,0,0,0,0,0,0,0,0,0,0,0,0,0,0,0,0,
0,0,0,0,0,0,0,0,0,0,0,0,0,0,0,0,0,604,605,606,0,0,0,0,0,0,0,0,0,0,0,0,0,0,0,0,0,0,0,0,0,0,0,0,0,0,0,0,0,0,0,0,0,0,0,0,0,0,0,0,0,0,0,0,
0,0,0,0,0,0,0,0,0,0,0,0,0,0,0,0,0,620,621,622,0,0,0,0,0,0,0,0,0,0,0,0,0,0,0,0,0,0,0,0,0,0,0,0,0,0,0,0,0,0,0,0,0,0,0,0,0,0,0,0,0,0,0,0,
0,0,0,0,0,0,0,0,0,0,0,0,0,0,0,0,0,0,0,0,0,0,0,0,0,0,0,0,0,0,0,0,0,0,0,0,0,0,0,0,0,0,0,0,0,0,0,0,0,0,0,0,0,0,0,0,0,0,0,0,0,0,0,0,
0,0,0,0,0,0,0,0,0,0,0,0,0,0,0,0,0,0,0,0,0,0,0,0,0,0,0,0,0,0,0,0,0,0,0,0,0,0,0,0,0,0,0,0,0,0,0,0,0,0,0,0,0,0,0,0,0,0,0,0,0,0,0,0,
0,0,0,0,0,0,0,0,0,0,0,0,0,0,0,0,0,0,0,0,0,0,0,0,0,0,0,0,0,0,0,0,0,0,0,0,0,0,0,0,0,0,0,588,589,590,0,0,0,0,0,0,0,0,0,0,0,0,0,0,0,0,0,0,
0,0,0,0,0,0,0,0,0,0,0,0,0,0,0,0,0,0,0,0,0,0,0,0,0,0,0,0,588,589,590,0,0,0,0,0,0,0,0,0,0,0,0,604,605,606,0,0,0,0,0,0,0,0,0,0,0,0,0,0,0,0,0,0,
0,0,0,0,0,0,0,0,0,0,588,589,590,0,0,0,0,0,0,0,0,0,0,0,0,0,0,0,604,605,606,0,0,0,0,0,0,0,0,0,0,0,0,620,621,622,0,0,0,0,0,0,0,0,0,0,0,0,0,0,0,0,0,0,
0,0,0,0,0,0,0,0,0,0,604,605,606,0,0,0,0,0,0,0,0,0,0,0,0,0,0,0,620,621,622,0,0,0,0,0,0,0,0,0,0,0,0,0,0,0,0,0,0,0,0,0,0,0,0,0,0,0,0,0,0,0,0,0,
0,0,0,0,0,0,0,0,0,0,620,621,622,0,0,0,0,0,0,0,0,0,0,0,0,0,0,0,0,0,0,0,0,0,0,0,0,0,0,0,0,0,0,0,0,0,0,0,0,0,0,0,0,0,0,0,0,0,0,0,0,0,0,0,
0,0,0,0,0,0,0,0,0,0,0,0,0,0,0,0,0,0,0,0,0,0,0,0,0,0,0,0,0,0,0,0,0,0,0,0,0,0,0,0,0,0,0,0,0,0,0,0,588,589,590,0,0,0,0,0,0,0,0,0,0,0,0,0,
0,0,0,0,0,0,0,0,0,0,0,0,0,0,0,0,0,0,0,0,0,0,0,0,0,0,0,0,0,0,0,0,0,0,0,0,0,0,0,0,0,0,0,0,0,0,0,0,604,605,605,590,0,0,0,0,0,0,0,0,0,0,0,0,
0,0,0,0,0,0,0,0,0,0,0,0,0,0,0,0,0,0,0,0,0,0,0,0,0,0,0,0,0,0,0,0,0,0,0,0,0,0,0,0,0,0,0,0,0,0,0,0,620,605,605,605,590,0,0,0,0,0,0,0,0,0,0,0,
0,0,0,0,0,0,0,0,0,0,0,0,0,0,0,0,0,0,0,0,0,0,0,0,0,0,0,0,0,0,0,0,0,0,0,0,0,0,0,0,0,0,0,0,0,0,0,0,0,620,605,605,606,0,0,0,0,0,0,0,0,0,0,0,
0,0,0,0,0,0,0,0,0,0,0,0,0,0,0,0,0,0,0,0,0,0,0,0,0,0,0,0,0,0,0,0,0,0,0,0,0,0,0,0,0,0,0,0,0,0,0,0,0,0,620,621,622,0,0,0,0,0,0,0,0,0,0,0,
0,0,0,0,0,0,0,0,0,0,0,0,0,0,0,0,0,0,0,0,0,0,0,0,0,0,0,0,0,0,0,0,0,0,0,0,0,0,0,0,0,0,0,0,0,0,0,0,0,0,0,0,0,0,0,0,0,0,0,0,0,0,0,0
</data>
 </layer>
 <layer id="3" name="build" width="64" height="56">
  <data encoding="csv">
0,0,0,0,0,0,0,0,0,0,0,0,5382,5383,5383,5383,5383,5383,5383,5383,5383,5383,5384,5385,0,0,0,5382,5383,5383,5383,5383,5383,5383,5384,5383,5383,5383,5385,0,0,0,0,0,0,0,0,0,0,0,0,0,0,0,0,0,0,0,0,0,0,0,0,0,
0,0,0,0,0,0,0,0,0,0,0,0,5395,5436,5436,5436,5436,5436,5436,5436,5436,5436,5436,5398,0,0,0,5395,5436,5436,5396,5436,5436,5436,5436,5436,5436,5436,5398,0,0,0,0,0,0,0,0,0,0,0,0,0,0,0,0,0,0,0,0,0,0,0,0,0,
0,0,0,0,0,0,0,0,0,0,0,0,5395,5436,5436,5396,5436,5436,5436,5436,5436,5436,5396,5398,0,0,0,5395,5436,5436,5436,5436,5436,5436,5436,5436,5396,5436,5398,0,0,0,0,0,0,0,0,0,0,0,0,0,0,0,0,0,0,0,0,0,0,0,0,0,
521,522,523,0,0,0,0,0,0,0,0,0,5395,5436,5436,5436,5436,5436,5436,5436,5436,5436,5436,5398,0,0,0,5395,5436,5436,5436,5436,5436,5436,5436,5436,5436,5436,5398,0,0,0,0,0,0,5436,0,0,0,0,0,0,0,0,0,0,0,0,5436,0,0,0,0,0,
537,538,539,0,0,0,0,0,0,0,0,0,5395,5436,5436,5436,5436,5436,5396,5436,5436,5436,5436,5398,0,0,0,5395,5436,5436,5436,5396,5436,5436,5396,5436,5436,5436,5398,0,0,0,0,5437,5434,5436,5437,5437,0,0,0,0,0,0,0,0,5437,5434,5436,5437,5437,0,0,0,
553,554,555,0,0,0,0,0,0,0,0,0,5395,5396,5436,5436,5436,5436,5436,5396,5436,5436,5436,5398,0,0,0,5395,5396,5436,5436,5436,5436,5436,5436,5436,5396,5396,5398,0,0,0,0,5433,5436,5436,5436,5438,0,0,0,0,0,0,0,0,5433,5436,5436,5436,5438,0,0,0,
537,538,539,0,0,0,0,0,0,0,0,0,5408,5409,5409,5410,5409,5409,5409,5409,5409,5409,5409,5411,0,0,0,5408,5409,5409,5409,5409,5409,5410,5409,5409,5409,5409,5411,0,0,0,0,5446,5448,5447,5450,5451,0,0,0,0,0,0,0,0,5446,5448,5447,5450,5451,0,0,0,
541,538,539,0,0,0,0,0,0,0,0,0,5433,5436,5437,5436,5434,5437,5437,5437,5437,5434,5436,5438,0,0,0,5433,5436,5377,5436,5434,5436,5437,5437,5437,5437,5437,5438,0,0,0,0,0,0,0,0,0,0,0,0,0,0,0,0,0,0,0,0,0,0,0,0,0,
553,554,555,0,0,0,0,0,0,0,0,0,5420,5422,5422,5422,5422,5424,5424,5422,5422,5424,5422,5425,0,0,0,5420,5424,5424,5423,5422,5422,5423,5424,5424,5423,5424,5425,0,0,0,0,0,0,0,0,0,0,0,0,0,0,0,0,0,0,0,0,0,0,0,0,0,
552,538,539,0,0,0,0,0,0,0,0,0,5433,5437,5436,5437,5437,5436,5436,5434,5436,5437,5436,5438,0,0,0,5433,5437,5437,5437,5436,5437,5437,5437,5437,5435,5437,5438,0,0,0,0,0,0,0,0,0,0,0,0,0,0,0,0,0,0,0,0,0,0,0,0,0,
541,538,539,0,0,0,0,0,0,0,0,0,5420,5422,5422,5422,5422,5424,5423,5424,5421,5422,5422,5425,0,0,0,5420,5423,5422,5424,5424,5423,5424,5422,5422,5422,5424,5425,0,0,0,0,0,0,0,0,0,0,0,0,0,0,0,0,0,0,0,0,0,0,0,0,0,
553,541,542,0,0,0,0,0,0,0,0,0,5433,5434,5435,5436,5437,5437,5437,5437,5437,5437,5437,5438,0,0,0,5433,5437,5436,5437,5437,5435,5437,5437,5437,5437,5437,5438,0,0,0,0,0,0,0,0,0,0,0,0,0,0,0,0,0,0,0,0,0,0,0,0,0,
537,538,539,0,0,0,0,0,0,0,0,0,5446,5447,5448,5447,5448,5447,5449,5447,5448,5450,5447,5451,0,0,0,5448,5447,5448,5447,5448,5447,5449,5447,5448,5448,5450,5451,0,0,0,0,0,0,0,0,0,0,0,0,0,0,0,0,0,0,0,0,0,0,0,0,0,
553,554,555,0,0,0,0,0,0,0,0,0,0,0,0,0,0,0,0,0,0,0,0,0,0,0,0,0,0,0,0,0,0,0,0,0,0,0,0,0,0,0,0,0,0,0,0,0,0,0,0,0,0,0,0,0,0,0,0,0,0,0,0,0,
537,538,539,0,0,0,0,0,0,0,0,0,0,0,0,0,0,0,0,0,0,0,0,0,0,0,0,0,0,0,0,0,0,0,0,0,0,0,0,0,0,0,0,0,0,0,0,0,0,0,0,0,0,0,0,0,0,0,0,0,0,0,0,0,
536,538,539,0,0,0,0,0,0,0,0,0,0,0,0,0,0,0,0,0,0,0,0,0,0,0,0,0,0,0,0,0,0,0,0,0,0,0,0,0,0,0,0,0,0,0,0,0,0,0,0,0,0,0,0,0,0,0,0,0,0,0,0,0,
536,538,555,0,0,0,0,0,0,0,0,0,0,0,0,0,0,0,0,0,0,0,0,0,0,0,0,0,0,0,0,0,0,0,0,0,0,0,0,0,0,0,0,0,0,0,0,0,0,0,0,0,0,0,0,0,0,0,0,0,0,0,0,0,
552,538,539,0,0,0,0,0,0,0,0,0,0,0,0,0,0,0,0,0,0,0,0,0,0,0,0,0,0,0,0,0,0,0,0,0,0,0,0,0,0,0,0,0,0,0,0,0,0,0,0,0,0,0,0,0,0,0,0,0,0,0,0,0,
553,554,555,0,0,0,0,0,0,0,0,0,0,0,0,0,0,0,0,0,0,0,0,0,0,0,0,0,0,0,0,0,0,0,0,0,0,0,0,0,0,0,0,0,0,0,0,0,0,0,0,0,0,0,0,0,0,0,0,0,0,0,0,0,
537,538,539,0,0,0,0,0,0,0,0,0,0,0,0,0,0,0,0,0,0,0,0,0,0,0,0,0,0,0,0,0,0,0,0,0,0,0,0,0,0,0,0,0,0,0,0,0,0,0,0,0,0,0,0,0,0,0,0,0,0,0,0,0,
553,554,555,0,0,0,0,0,0,0,0,0,0,0,0,0,0,0,0,0,0,0,0,0,0,0,0,0,0,0,0,0,0,0,0,0,0,0,0,0,0,0,0,0,0,0,0,0,0,0,0,0,0,0,0,0,0,0,0,0,0,0,0,0,
569,570,571,0,0,0,0,0,0,0,0,0,0,0,0,0,0,0,0,0,0,0,0,0,0,0,0,0,0,0,0,0,0,0,0,0,0,0,0,0,0,0,0,0,0,0,0,0,0,0,0,0,0,0,0,0,0,0,0,0,0,0,0,0,
0,0,0,0,0,0,0,0,0,0,0,0,0,0,0,0,0,0,0,0,0,0,0,0,0,0,0,0,0,0,0,0,0,0,0,0,0,0,0,0,0,0,0,0,0,0,0,0,0,0,0,0,0,0,0,0,0,0,0,0,0,0,0,0,
0,0,0,0,0,0,0,0,0,0,0,0,0,0,0,0,0,0,0,0,0,0,0,0,0,0,0,0,0,0,0,0,0,0,0,0,0,0,0,0,0,0,0,0,0,0,0,0,0,0,0,0,0,0,0,0,0,0,0,0,0,0,0,0,
0,0,0,0,0,0,0,0,0,0,0,0,0,0,0,0,0,0,0,0,0,0,0,0,0,0,0,0,0,0,0,0,0,0,0,0,0,0,0,0,0,0,0,0,0,0,0,0,0,0,0,0,0,0,0,0,0,0,0,0,0,0,0,0,
0,0,0,0,0,0,0,0,0,0,0,0,0,0,0,0,0,0,0,0,0,0,0,0,0,0,0,0,0,0,0,0,0,0,0,0,0,0,0,0,0,0,0,0,0,0,0,0,0,0,0,0,0,0,0,0,0,0,0,0,0,0,0,0,
0,0,0,0,0,0,0,0,0,0,0,0,0,0,0,0,0,0,0,0,0,0,0,0,0,0,0,0,0,0,0,0,0,0,0,0,0,0,0,0,0,0,0,0,0,0,0,0,0,0,0,0,0,0,0,0,0,0,0,0,0,0,0,0,
0,0,0,0,0,0,0,0,0,0,0,0,0,0,0,0,0,0,0,0,0,0,0,0,0,0,0,0,0,0,0,0,0,0,0,0,0,0,0,0,0,0,0,0,0,0,0,0,0,0,0,0,0,0,0,0,0,0,0,0,0,0,0,0,
0,0,0,0,0,0,0,0,0,0,0,0,0,0,0,0,0,0,0,0,0,0,0,0,0,0,0,0,0,0,0,0,0,0,0,0,0,0,0,0,0,0,0,0,0,0,0,0,0,0,0,0,0,0,0,0,0,0,0,0,0,0,0,0,
0,0,0,0,0,0,0,0,0,0,0,0,0,0,0,0,0,0,0,0,0,0,0,0,0,0,0,0,0,0,0,0,0,0,0,0,0,0,0,0,0,0,0,0,0,0,0,0,0,0,0,0,0,0,0,0,0,0,0,0,0,0,0,0,
0,0,0,0,0,0,0,0,0,0,0,0,0,0,0,0,0,0,0,0,0,0,0,0,0,0,0,0,0,0,0,0,0,0,0,0,0,0,0,0,0,0,0,0,0,0,0,0,0,0,0,0,0,0,0,0,0,0,0,0,0,0,0,0,
0,0,0,0,0,0,0,0,0,0,0,0,0,0,0,0,0,0,0,0,0,0,0,0,0,0,0,0,0,0,0,0,0,0,0,0,0,0,0,0,0,0,0,0,0,0,0,0,0,0,0,0,0,0,0,0,0,0,0,0,0,0,0,0,
0,0,0,0,0,0,0,0,0,0,0,0,0,0,0,0,0,0,0,0,0,0,0,0,0,0,0,0,0,0,0,0,0,0,0,0,0,0,0,0,0,0,0,0,0,0,0,0,0,0,0,0,0,0,0,0,0,0,0,0,0,0,0,0,
0,0,0,0,0,0,0,0,0,0,0,0,0,0,0,0,0,0,0,0,0,0,0,0,0,0,0,0,0,0,0,0,0,0,0,0,0,0,0,0,0,0,0,0,0,0,0,0,0,0,0,0,0,0,0,0,0,0,0,0,0,0,0,0,
0,0,0,0,0,0,0,0,0,0,0,0,0,0,0,0,0,0,0,0,0,0,0,0,0,0,0,0,0,0,0,0,0,0,0,0,0,0,0,0,0,0,0,0,0,0,0,0,0,0,0,0,0,0,0,0,0,0,0,0,0,0,0,0,
0,0,0,0,0,0,0,0,0,0,0,0,0,0,0,0,0,0,0,0,0,0,0,0,0,0,0,0,0,0,0,0,0,0,0,0,0,0,0,0,0,0,0,0,0,0,0,0,0,0,0,0,0,0,0,0,0,0,0,0,0,0,0,0,
0,0,0,0,0,0,0,0,0,0,0,0,0,0,0,0,0,0,0,0,0,0,0,0,0,0,0,0,0,0,0,0,0,0,0,0,0,0,0,0,0,0,0,0,0,0,0,0,0,0,0,0,0,0,0,0,0,0,0,0,0,0,0,0,
0,0,0,0,0,0,0,0,0,0,0,0,0,0,0,0,0,0,0,0,0,0,0,0,0,0,0,0,0,0,0,0,0,0,0,0,0,0,0,0,0,0,0,0,0,0,0,0,0,0,0,0,0,0,0,0,0,0,0,0,0,0,0,0,
0,0,0,0,0,0,0,0,0,0,0,0,0,0,0,0,0,0,0,0,0,0,0,0,0,0,0,0,0,0,0,0,0,0,0,0,0,0,0,0,0,0,0,0,0,0,0,0,0,0,0,0,0,0,0,0,0,0,0,0,0,0,0,0,
0,0,0,0,0,0,0,0,0,0,0,0,0,0,0,0,0,0,0,0,0,0,0,0,0,0,0,0,0,0,0,0,0,0,0,0,0,0,0,0,0,0,0,0,0,0,0,0,0,0,0,0,0,0,0,0,0,0,0,0,0,0,0,0,
0,0,0,0,0,0,0,0,0,0,0,0,0,0,0,0,0,0,0,0,0,0,0,0,0,0,0,0,0,0,0,0,0,0,0,0,0,0,0,0,0,0,0,0,0,0,0,0,0,0,0,0,0,0,0,0,0,0,0,0,0,0,0,0,
0,0,0,0,0,0,0,0,0,0,0,0,0,0,0,0,0,0,0,0,0,0,0,0,0,0,0,0,0,0,0,0,0,0,0,0,0,0,0,0,0,0,0,0,0,0,0,0,0,0,0,0,0,0,0,0,0,0,0,0,0,0,0,0,
0,0,0,0,0,0,0,0,0,0,0,0,0,0,0,0,0,0,0,0,0,0,0,0,0,0,0,0,0,0,0,0,0,0,0,0,0,0,0,0,0,0,0,0,0,0,0,0,0,0,0,0,0,0,0,0,0,0,0,0,0,0,0,0,
0,0,0,0,0,0,0,0,0,0,0,0,0,0,0,0,0,0,0,0,0,0,0,0,0,0,0,0,0,0,0,0,0,0,0,0,0,0,0,0,0,0,0,0,0,0,0,0,0,0,0,0,0,0,0,0,0,0,0,0,0,0,0,0,
0,0,0,0,0,0,0,0,0,0,0,0,0,0,0,0,0,0,0,0,0,0,0,0,0,0,0,0,0,0,0,0,0,0,0,0,0,0,0,0,0,0,0,0,0,0,0,0,0,0,0,0,0,0,0,0,0,0,0,0,0,0,0,0,
0,0,0,0,0,0,0,0,0,0,0,0,0,0,0,0,0,0,0,0,0,0,0,0,0,0,0,0,0,0,0,0,0,0,0,0,0,0,0,0,0,0,0,0,0,0,0,0,0,0,0,0,0,0,0,0,0,0,0,0,0,0,0,0,
0,0,0,0,0,0,0,0,0,0,0,0,0,0,0,0,0,0,0,0,0,0,0,0,0,0,0,0,0,0,0,0,0,0,0,0,0,0,0,0,0,0,0,0,0,0,0,0,0,0,0,0,0,0,0,0,0,0,0,0,0,0,0,0,
0,0,0,0,0,0,0,0,0,0,0,0,0,0,0,0,0,0,0,0,0,0,0,0,0,0,0,0,0,0,0,0,0,0,0,0,0,0,0,0,0,0,0,0,0,0,0,0,0,0,0,0,0,0,0,0,0,0,0,0,0,0,0,0,
0,0,0,0,0,0,0,0,0,0,0,0,0,0,0,0,0,0,0,0,0,0,0,0,0,0,0,0,0,0,0,0,0,0,0,0,0,0,0,0,0,0,0,0,0,0,0,0,0,0,0,0,0,0,0,0,0,0,0,0,0,0,0,0,
0,0,0,0,0,0,0,0,0,0,0,0,0,0,0,0,0,0,0,0,0,0,0,0,0,0,0,0,0,0,0,0,0,0,0,0,0,0,0,0,0,0,0,0,0,0,0,0,0,0,0,0,0,0,0,0,0,0,0,0,0,0,0,0,
0,0,0,0,0,0,0,0,0,0,0,0,0,0,0,0,0,0,0,0,0,0,0,0,0,0,0,0,0,0,0,0,0,0,0,0,0,0,0,0,0,0,0,0,0,0,0,0,0,0,0,0,0,0,0,0,0,0,0,0,0,0,0,0,
0,0,0,0,0,0,0,0,0,0,0,0,0,0,0,0,0,0,0,0,0,0,0,0,0,0,0,0,0,0,0,0,0,0,0,0,0,0,0,0,0,0,0,0,0,0,0,0,0,0,0,0,0,0,0,0,0,0,0,0,0,0,0,0,
0,0,0,0,0,0,0,0,0,0,0,0,0,0,0,0,0,0,0,0,0,0,0,0,0,0,0,0,0,0,0,0,0,0,0,0,0,0,0,0,0,0,0,0,0,0,0,0,0,0,0,0,0,0,0,0,0,0,0,0,0,0,0,0,
0,0,0,0,0,0,0,0,0,0,0,0,0,0,0,0,0,0,0,0,0,0,0,0,0,0,0,0,0,0,0,0,0,0,0,0,0,0,0,0,0,0,0,0,0,0,0,0,0,0,0,0,0,0,0,0,0,0,0,0,0,0,0,0,
0,0,0,0,0,0,0,0,0,0,0,0,0,0,0,0,0,0,0,0,0,0,0,0,0,0,0,0,0,0,0,0,0,0,0,0,0,0,0,0,0,0,0,0,0,0,0,0,0,0,0,0,0,0,0,0,0,0,0,0,0,0,0,0,
0,0,0,0,0,0,0,0,0,0,0,0,0,0,0,0,0,0,0,0,0,0,0,0,0,0,0,0,0,0,0,0,0,0,0,0,0,0,0,0,0,0,0,0,0,0,0,0,0,0,0,0,0,0,0,0,0,0,0,0,0,0,0,0
</data>
 </layer>
 <layer id="4" name="building top" width="64" height="56">
  <data encoding="csv">
0,0,0,0,0,0,0,0,0,0,0,0,0,0,0,0,0,0,0,0,0,0,0,0,0,0,0,0,0,0,0,0,0,0,0,0,0,0,0,0,0,0,0,0,0,638,0,0,0,0,0,0,0,0,0,0,628,629,630,631,632,0,0,0,
0,0,0,0,0,0,0,0,0,0,0,0,0,0,0,0,0,0,0,0,0,0,824,0,0,0,0,0,0,0,0,0,0,0,0,0,0,824,0,0,0,0,0,652,653,654,655,656,0,0,0,0,0,0,0,0,644,645,646,647,648,0,0,0,
589,589,589,589,589,589,590,0,0,0,0,0,0,0,0,0,0,0,0,0,0,0,0,0,0,0,0,0,0,0,0,0,0,0,0,0,0,0,0,0,0,0,0,668,669,654,671,672,0,0,0,0,0,0,0,0,660,661,646,663,664,0,0,0,
605,605,605,605,605,605,606,0,0,0,0,0,0,0,0,0,0,0,0,0,0,0,0,0,0,0,0,0,0,0,0,0,0,0,0,0,0,0,0,0,0,0,0,668,669,670,671,672,0,0,0,0,0,0,0,0,660,661,662,663,664,0,0,0,
605,605,605,605,605,605,606,0,0,0,0,0,0,0,0,0,0,0,0,0,0,0,0,0,0,0,0,0,0,0,0,0,0,0,0,0,0,0,0,0,0,0,0,684,685,686,687,688,0,0,0,0,0,0,0,0,676,677,678,679,680,0,0,0,
605,605,605,605,605,605,606,0,0,0,0,0,0,0,0,0,0,0,0,0,0,0,0,811,0,0,0,0,805,0,0,0,0,0,0,0,0,0,811,0,0,0,0,700,701,775,703,704,0,0,0,0,0,0,0,0,700,701,780,703,704,0,0,0,
605,605,605,605,605,605,606,0,0,0,0,0,0,0,0,0,0,0,0,0,0,0,0,0,0,0,0,0,0,0,0,0,0,0,0,0,0,0,0,0,0,0,0,0,0,791,0,0,0,0,0,0,0,0,0,0,0,0,796,0,0,0,0,0,
605,605,605,605,605,605,606,0,0,0,0,0,0,842,0,0,0,0,0,842,0,0,842,807,0,0,0,0,842,0,0,806,0,0,842,0,0,842,807,0,0,0,0,0,0,0,0,0,0,0,0,0,0,0,0,0,0,0,0,0,0,0,0,0,
605,605,605,605,605,605,606,0,0,0,0,0,0,0,0,0,0,0,0,0,0,0,0,0,0,0,0,0,0,0,0,0,0,0,0,0,0,0,0,0,0,0,0,0,0,0,0,0,0,0,0,0,0,0,0,0,0,0,0,0,0,0,0,0,
605,605,605,605,605,605,606,0,0,0,0,0,0,842,0,0,842,0,0,0,0,0,842,807,706,722,738,0,842,0,0,842,0,0,842,0,0,842,807,0,0,0,0,0,0,0,0,0,0,0,0,0,0,0,0,0,0,0,0,0,0,0,0,0,
605,605,605,605,605,605,606,0,0,0,0,0,0,0,0,0,0,0,0,0,0,0,0,0,0,0,0,0,0,0,0,0,0,0,0,0,0,0,0,5121,0,0,0,0,0,0,0,0,0,0,0,0,0,0,0,0,0,0,0,0,0,0,0,0,
605,605,605,605,605,605,606,0,0,0,0,0,0,0,0,780,0,0,0,5403,0,0,0,0,0,0,0,0,0,0,780,0,0,0,0,0,0,0,0,5137,0,0,0,0,0,0,0,0,0,0,0,0,0,0,0,0,0,0,0,0,0,0,0,0,
605,605,605,605,605,605,606,0,0,0,0,0,0,0,0,796,0,0,0,0,0,0,0,0,0,0,0,588,589,590,796,0,0,0,0,0,0,0,0,0,0,0,0,0,0,0,0,0,0,0,0,0,0,0,0,0,0,0,0,0,0,0,0,0,
605,605,605,605,605,605,606,0,0,588,589,590,0,0,0,0,0,0,0,0,0,0,0,0,0,0,0,604,605,606,0,0,0,0,0,0,0,0,0,0,0,0,0,0,0,0,0,0,0,0,0,0,0,0,0,0,0,0,0,0,0,0,0,0,
605,605,605,605,605,605,606,0,0,604,605,606,0,0,0,0,0,0,0,0,0,0,0,0,0,0,0,620,621,622,0,0,0,0,0,0,0,0,0,0,0,0,0,0,0,0,0,0,0,0,0,0,0,0,0,0,0,0,0,0,0,0,0,0,
605,605,605,605,605,605,606,0,0,620,621,622,0,0,0,0,0,0,0,0,0,0,0,0,0,0,0,0,0,0,0,0,0,0,0,0,0,0,0,0,0,0,0,0,0,0,0,0,0,0,0,0,0,0,0,0,0,0,0,0,0,0,0,0,
605,605,605,605,605,605,606,0,0,0,0,0,0,0,0,0,0,0,0,0,0,0,0,0,0,0,0,0,0,0,0,0,0,0,0,0,0,0,588,589,590,0,0,0,0,0,0,0,0,0,0,0,0,0,0,0,0,0,0,0,0,0,0,0,
605,605,605,605,605,605,606,0,0,0,0,0,0,0,0,0,0,0,0,0,0,0,0,0,0,0,0,0,0,0,0,0,0,0,0,0,0,0,604,605,606,0,0,0,0,0,0,0,0,0,0,0,0,0,0,0,0,0,0,0,0,0,0,0,
605,605,605,605,605,605,606,0,0,0,0,0,0,0,0,0,0,0,0,0,0,0,0,0,0,0,0,0,0,0,0,0,0,0,0,0,0,0,620,621,622,0,0,0,0,0,0,0,0,0,0,0,0,0,0,0,0,0,0,0,0,0,0,0,
605,605,605,605,605,605,606,0,0,0,0,0,0,0,0,0,0,0,0,0,0,0,0,0,0,0,0,0,0,0,0,0,0,0,0,0,0,0,0,0,0,0,0,0,0,0,0,0,0,0,0,0,0,0,0,0,0,0,0,0,0,0,0,0,
605,605,605,605,605,605,606,0,0,0,0,0,0,0,0,0,0,0,0,0,0,0,0,0,0,0,0,0,0,0,0,0,0,0,0,0,0,0,0,0,0,0,0,0,0,0,0,0,0,0,0,0,0,0,0,0,0,0,0,0,0,0,0,0,
605,605,605,605,605,605,606,0,0,0,0,0,0,0,0,0,0,0,0,0,0,0,0,0,0,0,0,0,0,0,0,0,0,0,0,0,0,0,0,0,0,0,0,0,0,0,0,0,0,0,0,0,0,0,0,0,0,0,0,0,0,0,0,0,
621,621,621,621,621,621,606,0,0,0,0,588,589,589,589,590,0,0,0,0,0,0,0,0,0,0,0,0,0,0,0,0,0,0,0,0,0,0,0,0,0,0,0,0,0,0,0,0,0,0,0,0,0,0,0,0,0,0,0,0,0,0,0,0,
0,0,0,0,0,0,0,0,0,0,0,604,605,605,605,606,0,0,0,0,0,0,0,0,0,0,0,0,0,0,0,0,0,0,0,0,0,0,0,0,0,0,0,0,0,0,0,0,0,0,0,0,0,0,0,0,0,0,0,0,0,0,0,0,
0,0,2580,0,0,0,0,0,0,0,0,604,605,605,605,606,0,0,0,0,0,0,0,0,0,0,0,0,0,0,0,0,0,0,0,0,0,0,0,0,0,0,0,0,0,0,0,0,0,0,0,0,0,0,0,0,0,0,0,0,0,0,0,0,
0,0,0,0,0,0,0,0,0,0,0,620,621,621,621,622,0,0,0,0,0,0,0,0,0,0,0,0,0,2777,2778,0,0,0,0,0,0,0,0,0,0,0,0,0,0,0,0,0,0,0,0,0,0,0,0,0,0,0,0,0,0,0,0,0,
0,0,0,0,0,0,0,0,0,0,0,0,0,0,0,0,0,0,0,0,0,0,0,0,0,0,0,0,0,0,0,0,0,0,0,0,0,0,0,0,0,0,0,0,0,0,0,0,0,0,0,0,0,0,0,0,0,0,0,0,0,0,0,0,
0,0,0,0,0,0,0,0,0,0,0,0,0,0,0,0,0,0,0,0,0,0,0,0,0,0,0,0,0,0,0,0,0,0,2716,0,0,0,0,0,0,0,0,0,0,0,0,0,0,0,0,0,0,0,0,0,0,0,0,0,0,0,0,0,
0,0,0,0,0,0,0,0,0,0,0,0,0,0,0,0,0,2521,2522,0,0,0,0,0,0,0,0,0,0,0,0,0,0,0,0,0,0,0,0,0,2644,0,0,0,0,0,0,0,0,0,0,2580,0,0,0,0,0,0,0,0,0,0,0,0,
0,0,0,0,0,0,0,0,0,0,0,0,0,0,0,0,0,0,0,0,0,0,0,0,0,2647,2648,0,0,0,0,0,0,0,0,0,0,0,0,0,0,0,0,0,0,0,0,0,0,0,0,0,0,0,0,0,0,0,0,0,0,0,0,0,
0,0,0,0,0,0,0,0,0,2644,0,0,0,0,0,0,0,0,0,0,0,0,0,0,0,0,0,0,0,0,0,0,0,0,0,0,0,0,0,0,0,0,0,0,0,0,0,0,0,0,0,0,0,0,0,0,0,0,0,0,0,0,0,0,
0,0,0,0,0,0,0,0,0,0,0,0,0,0,0,0,0,0,0,0,0,0,0,0,0,0,0,0,0,0,0,0,0,0,0,0,0,0,0,0,0,0,0,0,0,0,0,0,0,0,0,0,0,0,0,0,0,0,0,0,0,0,0,0,
0,0,0,0,0,0,0,0,0,0,0,0,0,0,0,0,0,0,0,0,0,0,0,0,0,0,0,2690,0,0,0,0,0,0,0,0,0,0,0,0,0,0,0,0,0,0,0,0,0,0,0,0,0,0,0,0,2716,0,0,0,0,0,0,0,
0,0,0,0,2647,2648,0,0,0,0,0,0,0,0,0,0,0,0,0,0,0,0,0,0,0,0,0,0,0,0,0,0,0,0,0,0,0,0,0,0,0,0,0,0,0,0,0,0,0,0,0,0,0,0,0,0,0,0,0,0,0,0,0,0,
0,0,0,0,0,0,0,0,0,0,0,0,0,0,0,0,0,2777,2778,0,0,0,0,0,0,0,0,0,0,0,0,0,0,0,0,0,0,0,0,0,0,0,0,0,0,0,0,0,0,0,2644,0,0,0,0,0,0,0,0,0,0,0,0,0,
0,0,0,0,0,0,0,0,0,0,0,0,0,0,0,0,0,0,0,0,0,0,0,0,0,0,0,0,0,0,0,0,0,0,0,0,0,0,0,0,0,0,0,0,0,0,0,0,0,0,0,0,0,0,0,0,0,0,0,0,0,0,0,0,
0,0,0,0,0,0,0,0,0,0,0,0,0,0,0,0,0,0,0,0,0,0,0,0,0,0,0,0,0,0,0,0,0,0,0,0,0,0,0,0,0,0,0,0,0,0,0,0,0,0,0,0,0,0,0,0,0,0,0,0,0,0,0,0,
0,0,0,0,0,0,0,0,0,0,0,0,0,0,0,0,0,0,0,0,0,0,0,0,0,0,0,0,0,0,0,0,0,0,0,0,0,0,0,0,0,0,0,0,0,0,0,0,0,0,0,0,0,0,0,0,0,0,0,0,0,0,0,0,
0,0,0,0,0,0,0,0,0,0,0,0,0,0,0,0,0,0,0,0,0,0,0,0,0,0,0,0,0,0,0,0,0,0,0,0,0,0,0,0,0,0,0,0,0,0,0,0,0,0,0,0,0,0,0,0,0,0,0,0,0,0,0,0,
0,0,0,0,0,0,0,0,0,0,0,0,0,0,0,0,0,0,0,0,0,0,0,0,0,0,0,0,0,0,0,0,0,0,0,0,0,0,0,0,0,0,0,0,0,0,0,0,0,0,0,0,0,0,0,0,0,0,0,0,0,0,0,0,
0,0,0,0,0,0,0,0,0,0,0,0,0,0,0,0,0,0,0,0,0,0,0,0,0,0,0,0,0,0,0,0,0,0,0,0,0,0,0,0,0,0,0,0,0,0,0,0,0,0,0,0,0,0,0,0,0,0,0,0,0,0,0,0,
0,0,0,0,0,0,0,0,0,0,0,0,0,0,0,0,0,0,0,0,0,0,0,0,0,0,0,0,0,0,0,0,0,0,0,0,0,0,0,0,0,0,0,0,0,0,0,0,0,0,0,0,0,0,0,0,0,0,0,0,0,0,0,0,
0,0,0,0,0,0,0,0,0,0,0,0,0,0,0,0,0,0,0,0,0,0,0,0,0,0,0,0,0,0,0,0,0,0,0,0,0,0,0,0,0,0,0,0,0,0,0,0,0,0,0,0,0,0,0,0,0,0,0,0,0,0,0,0,
0,0,0,0,0,0,0,0,0,0,0,0,0,0,0,0,0,0,0,0,0,0,0,0,0,0,0,0,0,0,0,0,0,0,0,0,0,0,0,0,0,0,0,0,0,0,0,0,0,0,0,0,0,0,0,0,0,0,0,0,0,0,0,0,
0,0,0,0,0,0,0,0,0,0,0,0,0,0,0,0,0,0,0,0,0,0,0,0,0,0,0,0,0,0,0,0,0,0,0,0,0,0,0,0,0,0,0,0,0,0,0,0,0,0,0,0,0,0,0,0,0,0,0,0,0,0,0,0,
0,0,0,0,0,0,0,0,0,0,0,0,0,0,0,0,0,0,0,0,0,0,0,0,0,0,0,0,0,0,0,0,0,0,0,0,0,0,0,0,0,0,0,0,0,0,0,0,0,0,0,0,0,0,0,0,0,0,0,0,0,0,0,0,
0,0,0,0,0,0,0,0,0,0,0,0,0,0,0,0,0,0,0,0,0,0,0,0,0,0,0,0,0,0,0,0,0,0,0,0,0,0,0,0,0,0,0,0,0,0,0,0,0,0,0,0,0,0,0,0,0,0,0,0,0,0,0,0,
0,0,0,0,0,0,0,0,0,0,0,0,0,0,0,0,0,0,0,0,0,0,0,0,0,0,0,0,0,0,0,0,0,0,0,0,0,0,0,0,0,0,0,0,0,0,0,0,0,0,0,0,0,0,0,0,0,0,0,0,0,0,0,0,
0,0,0,0,0,0,0,0,0,0,0,0,0,0,0,0,0,0,0,0,0,0,0,0,0,0,0,0,0,0,0,0,0,0,0,0,0,0,0,0,0,0,0,0,0,0,0,0,0,0,0,0,0,0,0,0,0,0,0,0,0,0,0,0,
0,0,0,0,0,0,0,0,0,0,0,0,0,0,0,0,0,0,0,0,0,0,0,0,0,0,0,0,0,0,0,0,0,0,0,0,0,0,0,0,0,0,0,0,0,0,0,0,0,0,0,0,0,0,0,0,0,0,0,0,0,0,0,0,
0,0,0,0,0,0,0,0,0,0,0,0,0,0,0,0,0,0,0,0,0,0,0,0,0,0,0,0,0,0,0,0,0,0,0,0,0,0,0,0,0,0,0,0,0,0,0,0,0,0,0,0,0,0,0,0,0,0,0,0,0,0,0,0,
0,0,0,0,0,0,0,0,0,0,0,0,0,0,0,0,0,0,0,0,0,0,0,0,0,0,0,0,0,0,0,0,0,0,0,0,0,0,0,0,0,0,0,0,0,0,0,0,0,0,0,0,0,0,0,0,0,0,0,0,0,0,0,0,
0,0,0,0,0,0,0,0,0,0,0,0,0,0,0,0,0,0,0,0,0,0,0,0,0,0,0,0,0,0,0,0,0,0,0,0,0,0,0,0,0,0,0,0,0,0,0,0,0,0,0,0,0,0,0,0,0,0,0,0,0,0,0,0,
0,0,0,0,0,0,0,0,0,0,0,0,0,0,0,0,0,0,0,0,0,0,0,0,0,0,0,0,0,0,0,0,0,0,0,0,0,0,0,0,0,0,0,0,0,0,0,0,0,0,0,0,0,0,0,0,0,0,0,0,0,0,0,0,
0,0,0,0,0,0,0,0,0,0,0,0,0,0,0,0,0,0,0,0,0,0,0,0,0,0,0,0,0,0,0,0,0,0,0,0,0,0,0,0,0,0,0,0,0,0,0,0,0,0,0,0,0,0,0,0,0,0,0,0,0,0,0,0,
0,0,0,0,0,0,0,0,0,0,0,0,0,0,0,0,0,0,0,0,0,0,0,0,0,0,0,0,0,0,0,0,0,0,0,0,0,0,0,0,0,0,0,0,0,0,0,0,0,0,0,0,0,0,0,0,0,0,0,0,0,0,0,0
</data>
 </layer>
 <layer id="11" name="vehicles bottom" width="64" height="56">
  <data encoding="csv">
0,0,0,0,0,0,0,0,0,0,0,0,0,0,0,0,0,0,0,0,0,0,0,0,0,0,0,0,0,0,0,0,0,0,0,0,0,0,0,0,0,0,0,0,0,0,0,0,0,0,0,0,0,0,0,0,0,0,0,0,0,0,0,0,
0,0,0,0,0,0,0,0,0,0,0,0,0,0,0,0,0,0,0,0,0,0,0,0,0,0,0,0,0,0,0,0,0,0,0,0,0,0,0,0,0,0,0,0,0,0,0,0,0,0,0,0,0,0,0,0,0,0,0,0,0,0,0,0,
0,0,0,0,0,0,0,0,0,0,0,0,0,0,0,0,0,0,0,0,0,0,0,0,0,0,0,0,0,0,0,0,0,0,0,0,0,0,0,0,0,0,0,0,0,0,0,0,0,0,0,0,0,0,0,0,0,0,0,0,0,0,0,0,
0,0,0,0,0,0,0,0,0,0,0,0,0,0,0,0,0,0,0,0,0,0,0,0,0,0,0,0,0,0,0,0,0,0,0,0,0,0,0,0,0,0,0,0,0,0,0,0,0,0,0,0,0,0,0,0,0,0,0,0,0,0,0,0,
0,0,0,0,0,0,0,0,0,0,0,0,0,0,0,0,0,0,0,0,0,0,0,0,0,0,0,0,0,0,0,0,0,0,0,0,0,0,0,0,0,0,0,0,0,0,0,0,0,0,0,0,0,0,0,0,0,0,0,0,0,0,0,0,
0,0,0,0,0,0,0,0,0,0,0,0,0,0,0,0,0,0,0,0,0,0,0,0,0,0,0,0,0,0,0,0,0,0,0,0,0,0,0,0,0,0,0,0,0,0,0,0,0,0,0,0,0,0,0,0,0,0,0,0,0,0,0,0,
0,0,0,0,0,0,0,0,0,0,0,0,0,0,0,0,0,0,0,0,0,0,0,0,0,0,0,0,0,0,0,0,0,0,0,0,0,0,0,0,0,0,0,0,0,0,0,0,0,0,0,0,0,0,0,0,0,0,0,0,0,0,0,0,
0,0,0,0,0,0,0,0,0,0,0,0,0,0,0,0,0,0,0,0,0,0,0,0,0,0,0,0,0,0,0,0,0,0,0,0,0,0,0,0,0,0,0,0,0,0,0,0,0,0,0,0,0,0,0,0,0,0,0,0,0,0,0,0,
0,0,0,0,0,0,0,0,0,0,0,0,0,0,0,0,0,0,0,0,0,0,0,0,0,0,0,0,0,0,0,0,0,0,0,0,0,0,0,0,0,0,0,0,0,0,0,0,0,0,0,0,0,0,0,0,0,0,0,0,0,0,0,0,
0,0,0,0,0,0,0,0,0,0,0,0,0,0,0,0,0,0,0,0,0,0,0,0,0,0,0,0,0,0,0,0,0,0,0,0,0,0,0,0,0,0,0,0,0,0,0,0,0,0,0,0,0,0,0,0,0,0,0,0,0,0,0,0,
0,0,0,0,0,0,0,0,0,0,0,0,0,0,0,0,0,0,0,0,0,0,0,0,0,0,0,0,0,0,0,0,0,0,0,0,0,0,0,0,0,0,0,0,0,0,0,0,0,0,0,0,0,0,0,0,0,0,0,0,0,0,0,0,
0,0,0,0,0,0,0,0,0,0,0,0,0,0,0,0,0,0,0,0,0,0,0,0,0,0,0,0,0,0,0,0,0,0,0,0,0,0,0,0,0,0,0,0,0,0,0,0,0,0,0,0,0,0,0,0,0,0,0,0,0,0,0,0,
0,0,0,0,0,0,0,0,0,0,0,0,0,0,0,0,0,0,0,0,0,0,0,0,0,0,0,0,0,0,0,0,0,0,0,0,0,0,0,0,0,0,0,0,0,0,0,0,0,0,0,0,0,0,0,0,0,0,0,0,0,0,0,0,
0,0,0,0,0,0,0,0,0,0,0,0,0,0,0,0,0,0,0,0,0,0,0,0,0,0,0,0,0,0,0,0,0,0,0,0,0,0,0,0,0,0,0,0,0,0,0,0,0,0,0,0,0,0,0,0,0,0,0,0,0,0,0,0,
0,0,0,0,0,0,0,0,0,0,0,0,0,0,0,0,0,0,0,0,0,0,0,0,0,0,0,0,0,0,0,0,0,0,0,0,0,0,0,0,0,0,0,0,0,0,0,0,0,0,0,0,0,0,0,0,0,0,0,0,0,0,0,0,
0,0,0,0,0,0,0,0,0,0,0,0,0,0,0,0,0,0,0,0,0,0,0,0,0,0,0,0,0,0,0,0,0,0,0,0,0,0,0,0,0,0,0,0,0,0,0,0,0,0,0,0,0,0,0,0,0,0,0,0,0,0,0,0,
0,0,0,0,0,0,0,0,0,0,0,0,0,0,0,0,0,0,0,0,0,0,0,0,0,0,0,0,0,0,0,0,0,0,0,0,0,0,0,0,0,0,0,0,0,0,0,0,0,0,0,0,0,0,0,0,0,0,0,0,0,0,0,0,
0,0,0,0,0,0,0,0,0,0,0,0,0,0,0,0,0,0,0,0,0,0,0,0,0,0,0,0,0,0,0,0,0,0,0,0,0,0,0,0,0,0,0,0,0,0,0,0,0,0,0,0,0,0,0,0,0,0,0,0,0,0,0,0,
0,0,0,0,0,0,0,0,0,0,0,0,0,0,0,0,0,0,0,0,0,0,0,0,0,0,0,0,0,0,0,0,0,0,0,0,0,0,0,0,0,0,0,0,0,0,0,0,0,0,0,0,0,0,0,0,0,0,0,0,0,0,0,0,
0,0,0,0,0,0,0,0,0,0,0,0,0,0,0,0,0,0,0,0,0,0,0,0,0,0,0,0,0,0,0,0,0,0,0,0,0,0,0,0,0,0,0,0,0,0,0,0,0,0,0,0,0,0,0,0,0,0,0,0,0,0,0,0,
0,0,0,0,0,0,0,0,0,0,0,0,0,0,0,0,0,0,0,0,0,0,0,0,0,0,0,0,0,0,0,0,0,0,0,0,0,0,0,0,0,0,0,0,0,0,0,0,0,0,0,0,0,0,0,0,0,0,0,0,0,0,0,0,
0,0,0,0,0,0,0,0,0,0,0,0,0,0,0,0,0,0,0,0,0,0,0,0,0,0,0,0,0,0,0,0,0,0,0,0,0,0,0,0,0,0,0,0,0,0,0,0,0,0,0,0,0,0,0,0,0,0,0,0,0,0,0,0,
0,0,0,0,0,0,0,0,0,0,0,0,0,0,0,0,0,0,0,0,0,0,0,0,0,0,0,0,0,1513,1514,1515,0,0,0,0,0,0,0,0,0,0,0,0,0,0,0,0,0,0,0,0,0,0,0,0,0,0,0,0,0,0,0,0,
0,0,0,0,0,0,0,0,0,0,0,0,0,0,0,0,0,0,0,0,0,0,0,0,0,0,0,0,0,1577,1578,1579,0,0,0,0,0,0,0,0,0,0,0,0,0,0,0,0,0,0,0,0,0,0,0,0,0,0,0,0,0,0,0,0,
0,0,0,0,0,0,0,0,0,0,0,0,0,0,0,0,0,0,0,0,0,1494,1495,0,0,0,0,0,0,0,0,0,0,0,0,0,0,0,0,0,0,0,0,0,0,0,0,0,0,0,0,0,0,0,0,0,0,0,0,0,0,0,0,0,
0,0,0,0,0,0,0,0,0,0,0,0,0,0,0,0,0,0,0,0,0,1558,1559,0,0,0,0,0,0,0,0,0,0,0,0,0,0,0,0,0,0,0,0,0,0,0,0,0,0,0,0,0,0,0,0,0,0,0,0,0,0,0,0,0,
0,0,0,0,0,0,0,0,0,0,0,0,0,0,0,0,0,0,0,0,0,0,0,0,0,0,0,0,0,0,0,0,0,0,0,0,0,0,0,0,0,0,0,0,0,0,0,0,0,0,0,0,0,0,0,0,0,0,0,0,0,0,0,0,
0,0,0,0,0,0,0,0,0,0,0,0,0,0,0,0,0,0,0,0,0,0,0,0,0,0,0,0,0,0,0,0,0,0,0,0,0,0,0,0,0,0,0,0,0,0,0,0,0,0,0,0,0,0,0,0,0,0,0,0,0,0,0,0,
0,0,0,2123,2124,0,0,0,0,0,0,0,0,0,0,0,0,0,0,0,0,0,0,0,0,0,0,0,0,0,0,0,0,0,0,0,0,0,0,0,0,0,0,0,0,0,0,0,0,0,0,0,0,0,0,0,0,0,0,0,0,0,0,0,
0,0,0,2187,2188,0,0,0,0,0,0,0,0,0,0,0,0,0,0,0,0,0,0,0,0,0,0,0,0,0,0,0,0,0,0,0,0,0,0,0,0,0,0,0,0,0,0,0,0,0,0,0,0,0,0,0,0,0,0,0,0,0,0,0,
0,0,0,2251,2252,0,0,0,0,0,0,0,0,0,0,0,0,0,0,0,0,0,0,0,0,0,0,0,0,0,0,0,0,2121,2122,0,0,0,0,0,0,0,0,0,0,0,0,0,0,0,0,0,0,0,0,0,0,0,0,0,0,0,0,0,
0,0,0,0,0,0,0,0,0,0,0,0,0,0,0,0,0,0,0,0,0,0,0,0,0,0,0,0,0,0,0,0,0,2185,2186,0,0,0,0,0,0,0,0,0,0,0,0,0,0,0,0,0,0,0,0,0,0,0,0,0,0,0,0,0,
0,0,0,0,0,0,0,0,0,0,0,0,0,0,0,0,0,0,0,0,0,0,0,0,0,0,0,0,0,0,0,0,0,2249,2250,0,0,0,0,0,0,0,0,0,0,0,0,0,0,0,0,0,0,0,0,0,0,0,0,0,0,0,0,0,
0,0,0,0,0,0,0,0,0,0,0,0,0,0,0,0,0,0,0,0,0,0,0,0,0,0,0,0,0,0,0,0,0,0,0,0,0,0,0,0,0,0,0,0,0,0,0,0,0,0,0,0,0,0,0,0,0,0,0,0,0,0,0,0,
0,0,0,0,0,0,0,0,0,0,0,0,0,0,0,0,0,0,0,0,0,0,0,0,0,0,0,0,0,0,0,0,0,0,0,0,0,0,0,0,0,0,0,0,0,0,0,0,0,0,0,0,0,0,0,0,0,0,0,0,0,0,0,0,
0,0,0,0,0,0,0,0,0,0,0,0,0,0,0,0,0,0,0,0,0,0,0,0,0,0,0,0,0,0,0,0,0,0,0,0,0,0,0,0,0,0,0,0,0,0,0,0,0,0,0,0,0,0,0,0,0,0,0,0,0,0,0,0,
0,0,0,0,0,0,0,0,0,0,0,0,0,0,0,0,0,0,0,0,0,0,0,0,0,0,0,0,0,0,0,0,0,0,0,0,0,0,0,0,0,0,0,0,0,0,0,0,0,0,0,0,0,0,0,0,0,0,0,0,0,0,0,0,
0,0,0,0,0,0,0,0,0,0,0,0,0,0,0,0,0,0,0,0,1372,1373,1374,0,0,0,0,0,0,0,0,0,0,0,0,0,0,0,0,0,0,0,0,0,0,0,0,0,0,0,0,0,0,0,0,0,0,0,0,0,0,0,0,0,
0,0,0,0,0,0,0,0,0,0,0,0,0,0,0,0,0,0,0,0,1436,1437,1438,0,0,0,0,0,0,0,0,0,0,0,0,0,0,0,0,0,0,0,0,0,0,0,0,0,925,926,927,0,0,0,0,0,0,0,0,0,0,0,0,0,
0,0,0,0,0,0,0,0,0,0,0,0,0,0,0,1621,1622,1623,1624,0,0,0,0,0,0,0,0,0,0,0,0,0,0,0,0,0,0,0,0,0,0,0,0,0,0,0,0,0,941,942,943,0,0,0,0,0,0,0,0,0,0,0,0,0,
0,0,0,0,0,0,0,0,0,0,0,0,0,0,0,1685,1686,1687,1688,0,0,0,0,0,0,0,0,0,0,0,0,0,0,0,0,0,0,0,0,0,0,0,0,0,0,0,0,0,0,0,0,0,0,0,0,0,0,0,0,0,0,0,0,0,
0,0,0,0,0,0,0,0,0,0,0,0,0,0,0,1749,1750,1751,1752,0,0,0,0,0,0,0,0,0,0,0,0,0,0,0,0,0,0,0,0,0,0,0,0,0,0,0,0,0,0,0,0,0,0,0,0,0,0,0,0,0,0,0,0,0,
0,0,0,0,0,0,0,0,0,0,0,0,0,0,0,1813,1814,1815,1816,0,0,0,0,0,0,0,0,0,0,0,0,0,0,0,0,0,0,0,0,0,0,0,0,0,0,0,0,0,0,0,0,0,0,0,0,0,1378,1379,1380,0,0,0,0,0,
0,0,0,0,0,0,0,0,0,0,0,0,0,0,0,0,0,0,0,0,0,0,0,0,0,0,0,0,0,0,0,0,0,0,0,0,0,0,0,0,0,0,0,0,0,0,0,0,0,0,0,0,0,0,0,0,1442,1443,1444,0,0,0,0,0,
0,0,0,0,0,0,0,0,0,0,0,0,0,0,0,0,0,0,0,0,0,0,0,0,0,0,0,0,0,0,0,0,0,0,0,0,0,0,0,0,0,0,0,0,0,0,0,0,0,0,0,0,0,0,0,0,0,0,0,0,0,0,0,0,
0,0,0,0,0,0,0,0,0,0,0,0,0,0,0,0,0,0,0,0,0,0,0,0,0,0,0,0,0,0,0,0,0,0,0,0,0,0,0,0,0,0,0,0,0,0,0,0,0,0,0,0,0,0,0,0,0,0,0,0,0,0,0,0,
0,0,0,0,0,0,0,0,0,0,0,0,0,0,0,0,0,0,0,0,0,0,0,0,0,0,0,0,0,0,0,0,0,0,0,0,0,0,0,0,0,0,0,0,0,0,0,0,0,0,0,0,0,0,0,0,0,0,0,0,0,0,0,0,
0,0,0,0,0,0,0,0,0,0,0,0,0,0,0,0,0,0,0,0,0,0,0,0,0,0,0,0,0,0,0,0,0,0,0,0,0,0,0,0,0,0,0,0,0,0,0,0,0,0,0,0,0,0,0,0,0,0,0,0,0,0,0,0,
0,0,0,0,0,0,0,0,0,0,0,0,0,0,0,0,0,0,0,0,0,0,0,0,0,0,0,0,0,0,0,0,0,0,0,0,0,0,0,0,0,0,0,0,0,0,0,0,0,0,0,0,0,0,0,0,0,0,0,0,0,0,0,0,
0,0,0,0,0,0,0,0,0,0,0,0,0,0,0,0,0,0,0,0,0,0,0,0,0,0,0,0,0,0,0,0,0,0,0,0,0,0,0,0,0,0,0,0,0,0,0,0,0,0,0,0,0,0,0,0,0,0,0,0,0,0,0,0,
0,0,0,0,0,0,0,0,0,0,0,0,0,0,0,0,0,0,0,0,0,0,0,0,0,0,0,0,0,0,0,0,0,0,0,0,0,0,0,0,0,0,0,0,0,0,0,0,0,0,0,0,0,0,0,0,0,0,0,0,0,0,0,0,
0,0,0,0,0,0,0,0,0,0,0,0,0,0,0,0,0,0,0,0,0,0,0,0,0,0,0,0,0,0,0,0,0,0,0,0,0,0,0,0,0,0,0,0,0,0,0,0,0,0,0,0,0,0,0,0,0,0,0,0,0,0,0,0,
0,0,0,0,0,0,0,0,0,0,0,0,0,0,0,0,0,0,0,0,0,0,0,0,0,0,0,0,0,0,0,0,0,0,0,0,0,0,0,0,0,0,0,0,0,0,0,0,0,0,0,0,0,0,0,0,0,0,0,0,0,0,0,0,
0,0,0,0,0,0,0,0,0,0,0,0,0,0,0,0,0,0,0,0,0,0,0,0,0,0,0,0,0,0,0,0,0,0,0,0,0,0,0,0,0,0,0,0,0,0,0,0,0,0,0,0,0,0,0,0,0,0,0,0,0,0,0,0,
0,0,0,0,0,0,0,0,0,0,0,0,0,0,0,0,0,0,0,0,0,0,0,0,0,0,0,0,0,0,0,0,0,0,0,0,0,0,0,0,0,0,0,0,0,0,0,0,0,0,0,0,0,0,0,0,0,0,0,0,0,0,0,0,
0,0,0,0,0,0,0,0,0,0,0,0,0,0,0,0,0,0,0,0,0,0,0,0,0,0,0,0,0,0,0,0,0,0,0,0,0,0,0,0,0,0,0,0,0,0,0,0,0,0,0,0,0,0,0,0,0,0,0,0,0,0,0,0
</data>
 </layer>
 <layer id="10" name="vehicles" width="64" height="56">
  <data encoding="csv">
0,0,0,0,0,0,0,0,0,0,0,0,0,0,0,0,0,0,0,0,0,0,0,0,0,0,0,0,0,0,0,0,0,0,0,0,0,0,0,0,0,0,0,0,0,0,0,0,0,0,0,0,0,0,0,0,0,0,0,0,0,0,0,0,
0,0,0,0,0,0,0,0,0,0,0,0,0,0,0,0,0,0,0,0,0,0,0,0,0,0,0,0,0,0,0,0,0,0,0,0,0,0,0,1381,1382,1383,0,0,0,0,0,0,0,0,0,0,0,0,0,0,0,0,0,0,0,0,0,0,
0,0,0,0,0,0,0,0,0,0,0,0,0,0,0,0,0,0,0,0,0,0,0,0,0,0,0,0,0,0,0,0,0,0,0,0,0,0,0,1445,1446,1447,0,0,0,0,0,0,0,0,0,0,0,989,990,991,0,0,0,0,0,0,0,0,
0,0,0,0,0,0,0,0,0,0,0,0,0,0,0,0,0,0,0,0,0,0,0,0,0,0,0,0,0,0,0,0,0,0,0,0,0,0,0,0,0,0,0,0,0,0,0,0,0,0,0,0,0,1005,1006,1007,0,0,0,0,0,0,0,0,
0,0,0,0,0,0,0,0,0,0,0,0,0,0,0,0,0,0,0,0,0,0,0,0,0,0,0,0,0,0,0,0,0,0,0,0,0,0,0,0,0,0,0,0,0,0,0,0,0,0,0,0,0,0,0,0,0,0,0,0,0,0,0,0,
0,0,0,0,0,0,0,0,0,0,0,0,0,0,0,0,0,0,0,0,0,0,0,0,0,0,0,0,0,0,0,0,0,0,0,0,0,0,0,0,0,0,0,0,0,0,0,0,0,0,0,0,0,0,0,0,0,0,0,0,0,0,0,0,
0,0,0,0,0,0,0,0,0,0,0,0,0,0,0,0,0,0,0,0,0,0,0,0,0,0,0,0,0,0,0,0,0,0,0,0,0,0,0,0,0,0,0,0,0,0,0,0,0,0,0,0,0,0,0,0,0,0,0,0,0,0,0,0,
0,0,0,0,0,0,0,0,0,0,0,0,0,0,0,0,0,0,0,0,0,0,0,0,0,0,0,0,0,0,0,0,0,0,0,0,0,0,0,0,0,0,0,0,0,0,0,0,0,0,0,0,0,0,0,0,0,0,0,0,0,0,0,0,
0,0,0,0,0,0,0,0,0,0,0,0,0,0,0,0,0,0,0,0,0,0,0,0,0,0,0,0,0,0,0,0,0,0,0,0,0,0,0,0,0,0,0,0,0,0,0,0,0,0,0,0,0,0,0,0,0,0,0,0,0,0,0,0,
0,0,0,0,0,0,0,0,0,0,0,0,0,0,0,0,0,0,0,0,0,0,0,0,0,0,0,0,0,0,0,0,0,0,0,0,0,0,0,0,0,0,0,0,0,0,0,0,0,0,0,0,0,0,0,0,0,0,0,0,0,0,0,0,
0,0,0,0,0,0,0,0,0,0,0,0,0,0,0,0,0,0,0,0,0,0,0,0,0,0,0,0,0,0,0,0,0,0,0,0,0,0,0,0,0,0,0,0,0,0,0,0,0,0,0,0,0,0,0,0,0,0,0,0,0,0,0,0,
0,0,0,0,0,0,0,0,0,0,0,0,1482,1483,0,0,0,0,0,0,0,0,0,0,0,0,0,0,0,0,0,0,0,0,0,0,0,0,0,0,0,0,0,0,0,0,0,0,0,0,0,0,0,0,0,0,0,0,0,0,0,0,0,0,
0,0,0,0,0,0,0,0,0,0,0,0,1546,1547,0,0,0,0,0,0,0,0,0,0,0,0,0,0,0,0,0,0,0,0,0,0,0,0,0,0,0,0,0,0,0,0,0,0,0,0,0,0,0,0,0,0,0,0,0,0,0,0,0,0,
0,0,0,0,0,0,0,0,0,0,0,0,0,0,0,0,0,0,0,0,0,0,0,0,0,0,0,0,0,0,0,0,0,0,0,0,0,0,0,0,0,0,0,0,0,0,0,0,0,0,0,0,0,0,0,0,0,0,0,0,0,0,0,0,
0,0,0,0,0,0,0,0,0,0,0,0,0,0,0,0,0,0,0,0,0,0,0,0,0,0,0,0,0,0,0,0,0,0,0,0,0,0,0,0,0,0,0,0,0,0,0,0,0,0,0,0,0,0,0,0,0,0,0,0,0,0,0,0,
0,0,0,0,0,0,0,0,0,0,0,0,0,0,0,0,0,0,0,0,0,0,0,0,0,0,0,0,0,0,0,0,0,0,0,0,1909,1910,1911,1912,0,0,0,0,0,0,0,0,0,0,0,0,0,0,0,0,0,0,0,0,0,0,0,0,
0,0,0,0,0,0,0,0,0,0,0,0,0,0,0,0,0,0,0,0,0,0,0,0,0,0,0,0,0,0,0,0,0,0,0,0,1973,1974,1975,1976,0,0,0,0,0,0,0,0,0,0,0,0,0,0,0,0,0,0,0,0,0,0,0,0,
0,0,0,0,0,0,0,0,0,0,0,0,0,0,0,0,0,0,0,0,0,0,0,0,0,0,0,0,0,0,0,0,0,0,0,0,2037,2038,2039,2040,0,0,0,0,0,0,0,0,0,0,0,0,0,0,0,0,0,0,0,0,0,0,0,0,
0,0,0,0,0,0,0,0,0,0,0,0,0,0,0,0,0,0,0,0,0,0,0,0,0,0,0,0,0,0,0,0,0,0,0,0,2101,2102,2103,2104,0,0,0,0,0,0,0,0,0,0,0,0,0,0,0,0,0,0,0,0,0,0,0,0,
0,0,0,0,0,0,0,0,0,0,0,0,0,0,0,0,0,0,0,0,0,0,0,0,0,0,0,0,0,0,0,0,0,0,0,0,0,0,0,0,0,0,0,0,0,0,0,0,0,0,0,0,0,0,0,0,0,0,0,0,0,0,0,0,
0,0,0,0,0,0,0,0,0,0,0,0,0,0,0,0,0,0,0,0,0,0,0,0,0,0,0,0,0,0,0,0,0,0,0,0,0,0,0,0,0,0,0,0,0,0,0,0,0,0,0,0,0,0,0,0,0,0,0,0,1074,1075,1076,1077,
0,0,0,0,0,0,0,0,0,0,0,0,0,0,0,0,0,0,0,0,0,0,0,0,0,0,0,0,0,0,0,0,0,0,0,0,0,0,0,0,1082,1083,1084,0,0,0,0,0,0,0,0,0,0,0,0,0,0,0,0,0,1138,1139,1140,1141,
0,0,0,0,0,0,0,0,0,0,0,0,0,0,0,0,0,0,0,0,0,0,0,0,0,0,0,0,0,0,0,0,0,0,0,0,0,0,0,0,1146,1147,1148,0,0,0,0,0,0,0,0,0,0,0,0,0,0,0,0,0,0,0,0,0,
0,0,0,0,0,0,0,0,0,0,0,0,0,0,0,2113,2114,2115,2116,2117,2118,1492,1493,1621,1622,1623,1624,1235,1236,1237,1238,1239,1240,1241,1242,1243,0,0,0,0,0,0,0,0,0,0,0,0,0,0,0,0,2377,2378,2379,2380,0,0,0,0,0,0,0,0,
1881,1882,1883,1884,0,0,2125,2126,0,0,0,0,0,0,0,2177,2178,2179,2180,2181,2182,1556,1557,1685,1686,1687,1688,1299,1300,1301,1302,1303,1304,1305,1306,1307,0,0,0,0,0,0,0,0,0,0,0,0,0,0,0,0,2441,2442,2443,2444,0,0,0,0,0,0,0,0,
1945,1946,1947,1948,0,0,2189,2190,0,0,0,0,0,0,0,2241,2242,2243,2244,2245,2246,0,0,1749,1750,1751,1752,0,0,0,0,0,0,0,0,0,0,0,0,0,0,0,0,0,0,0,0,0,0,0,0,0,2505,2506,2507,2508,0,0,0,0,0,0,0,0,
2009,2010,2011,2012,0,0,2253,2254,0,0,0,0,0,0,0,0,1354,1355,1356,0,0,0,0,1813,1814,1815,1816,0,0,0,0,0,0,0,0,0,0,0,0,0,0,0,0,0,0,0,1629,1630,1631,1632,0,0,0,0,0,0,0,0,0,0,0,0,0,0,
2073,2074,2075,2076,0,0,0,0,0,0,1360,1361,1362,1229,1230,1231,1418,1419,1420,0,0,0,0,0,0,0,0,0,0,0,0,0,0,1888,1889,1890,1891,1892,0,0,0,0,0,0,0,0,1693,1694,1695,1696,0,0,0,0,0,0,0,0,0,0,0,0,0,0,
0,0,0,0,0,0,0,0,0,0,1424,1425,1426,1293,1294,1295,0,2309,2310,2311,2312,0,0,0,2119,2120,2121,2122,2123,2124,1885,1886,1887,1888,1953,1954,1955,1956,0,0,0,0,0,0,0,0,1757,1758,1759,1760,0,0,0,0,0,0,0,0,0,0,0,0,0,0,
0,0,0,0,0,0,0,0,0,0,0,0,0,0,0,0,0,2373,2374,2564,2565,2566,0,0,2183,2184,2185,2186,2375,2376,1949,1950,1951,1952,2017,2018,2019,2020,0,0,0,0,524,525,526,0,1821,1822,1823,1824,0,0,0,0,0,0,0,0,0,0,0,0,0,0,
1040,1041,0,1610614221,1610614285,0,0,0,0,0,0,0,0,0,0,0,0,2437,2438,2628,2629,2630,0,0,2247,2248,2249,2250,2439,2440,2013,2014,2015,2016,2081,2082,2083,2084,0,0,0,0,540,541,542,0,0,0,0,0,0,519,520,521,522,523,0,0,0,0,0,0,0,0,
1104,1105,0,0,0,0,0,0,519,520,521,522,523,2691,2692,0,0,2501,2502,0,0,0,0,0,0,0,0,0,2503,2504,2077,2078,2079,2080,0,0,0,0,0,0,0,0,556,557,558,0,0,0,0,0,0,535,536,537,538,539,2117,2118,2119,2120,0,0,0,0,
1168,1169,0,0,0,0,0,0,535,536,537,538,539,0,0,0,0,0,0,0,0,0,0,0,0,0,0,0,0,0,0,0,0,0,0,0,0,0,0,0,0,0,0,0,0,0,0,0,0,0,0,567,568,569,570,571,2181,2182,2183,2184,0,0,0,0,
1369,1370,1371,0,0,0,0,0,551,552,553,554,555,0,0,0,0,0,0,0,0,0,0,0,0,0,0,0,0,0,0,0,0,0,0,0,0,0,0,0,0,0,0,0,0,0,0,0,0,0,0,0,0,0,0,0,2245,2246,2247,2248,0,0,0,0,
1433,1434,1435,0,0,0,0,0,567,568,569,570,571,0,0,0,0,0,0,0,0,0,519,520,525,520,521,522,523,0,0,0,0,0,0,0,0,0,0,0,0,0,0,0,0,0,0,2561,2562,2563,0,0,0,0,0,0,0,0,0,0,0,0,0,0,
0,0,0,0,0,0,0,0,0,0,0,0,0,0,0,0,0,0,0,0,0,0,535,536,537,538,541,538,555,0,0,0,0,0,0,0,0,0,0,0,0,0,0,0,0,0,0,2625,2626,2627,0,0,0,0,0,0,0,0,0,0,0,0,0,0,
0,0,0,0,0,0,0,0,0,0,0,0,0,0,0,0,0,0,0,0,0,0,551,552,553,536,541,554,539,0,0,0,0,0,0,0,0,0,0,0,0,0,0,0,0,0,0,0,0,0,0,0,0,0,0,0,0,0,0,0,0,0,0,0,
0,0,0,0,0,0,0,0,0,0,0,0,0,0,0,0,0,0,0,1180,1181,0,567,557,557,568,569,570,558,0,0,0,0,0,0,0,0,0,0,0,0,0,0,0,0,0,0,0,0,0,0,0,0,0,0,0,0,0,2147484729,2147484728,2147484727,2147484726,0,0,
0,0,0,0,0,0,0,0,0,0,0,0,1200,1201,0,0,0,0,0,1244,1245,0,0,0,0,0,0,0,0,0,0,0,0,0,0,0,0,0,0,1058,1059,1060,1061,0,0,0,0,0,0,1188,1189,0,0,0,0,0,0,0,2147484793,2147484792,2147484791,2147484790,0,0,
0,0,0,0,0,0,0,0,0,0,0,0,1264,1265,0,0,0,0,0,1308,1309,0,0,0,0,0,0,0,0,0,0,0,0,0,1892,0,0,0,0,1122,1123,1124,1125,0,0,0,0,0,0,1252,1253,0,0,0,0,0,0,0,0,0,0,0,0,0,
0,0,0,0,0,0,0,0,0,0,0,0,1328,1329,0,0,0,0,0,0,0,0,0,0,0,0,0,0,0,0,1889,1890,1891,0,0,0,0,0,0,0,0,0,0,0,0,0,0,0,0,1316,1317,0,0,0,0,0,0,0,0,0,0,0,0,0,
0,0,0,0,0,1066,1067,1068,1069,0,0,0,0,0,0,0,0,0,0,0,0,0,0,0,0,0,0,0,0,0,1953,1954,1955,1956,0,0,0,0,0,0,1504,1505,1506,0,0,0,0,0,0,0,0,0,0,0,0,0,0,0,0,0,0,0,0,0,
0,0,0,0,0,1130,1131,1132,1133,0,0,0,1078,1079,1080,1081,0,0,0,0,0,0,0,0,0,0,0,0,0,0,2017,2018,2019,2020,0,0,0,0,0,0,1568,1569,1570,0,0,0,0,0,0,0,0,0,0,0,0,0,1208,1209,0,0,0,0,0,0,
0,0,0,0,0,0,0,0,0,0,0,0,1142,1143,1144,1145,0,0,0,0,0,0,0,0,0,0,0,0,0,0,2081,2082,2083,2084,0,0,0,0,0,0,0,0,0,0,0,0,0,0,0,0,0,0,0,0,0,0,1272,1273,0,0,0,0,0,0,
0,0,0,0,0,0,0,0,0,0,0,0,0,0,0,0,0,0,0,0,0,0,0,0,0,0,0,0,0,0,0,0,0,0,0,0,0,0,0,0,0,0,0,0,0,0,0,0,0,0,0,0,0,0,0,0,1336,1337,0,0,0,0,0,0,
0,0,1194,1195,0,0,0,0,0,0,0,0,0,0,0,0,0,0,0,0,0,0,0,0,0,0,0,0,0,0,0,0,0,0,0,0,0,0,0,0,0,0,0,0,0,0,0,0,0,0,0,0,0,0,0,0,0,0,0,0,0,0,0,0,
0,0,1258,1259,0,0,0,0,0,0,0,0,0,0,0,0,0,0,0,0,0,0,0,0,0,0,0,0,0,0,0,0,0,0,0,0,0,0,0,0,0,0,0,0,0,0,0,0,0,0,0,0,0,0,0,0,0,0,0,0,0,0,0,0,
0,0,1322,1323,0,0,0,0,0,0,0,0,0,0,0,0,1504,1505,1506,0,0,0,0,0,0,0,0,0,0,0,0,0,0,0,0,0,0,0,0,0,0,0,0,0,0,1510,1511,1512,0,0,0,1194,1195,0,0,0,0,0,0,0,0,0,0,0,
0,0,0,0,0,0,0,0,0,0,0,0,0,0,0,0,1568,1569,1570,0,0,0,0,0,0,0,0,0,0,0,0,0,1501,1502,1503,0,0,0,0,0,0,0,0,0,0,1574,1575,1576,0,0,0,1258,1259,0,0,0,0,0,0,0,0,0,0,0,
0,0,0,0,0,0,0,0,0,0,0,0,0,0,0,0,0,0,0,0,0,0,0,1200,1201,0,0,0,0,0,0,0,1565,1566,1567,0,0,0,0,0,0,0,0,0,0,0,0,0,0,0,0,1322,1323,0,0,0,0,0,0,0,0,0,0,0,
0,0,0,0,0,0,0,0,0,0,0,0,0,0,0,0,0,0,0,0,0,0,0,1264,1265,0,0,0,0,0,0,0,0,0,0,0,1498,1499,1500,0,0,0,0,0,0,0,0,0,0,0,0,0,0,0,0,0,0,0,0,0,0,0,0,0,
0,0,0,0,0,0,0,0,0,0,0,0,0,0,0,0,0,0,0,0,0,0,0,1328,1329,0,0,0,0,0,0,0,0,0,0,0,1562,1563,1564,0,0,0,0,1208,1209,0,0,0,0,0,0,0,0,0,0,0,0,0,0,0,0,0,0,0,
0,0,0,0,0,0,0,0,0,0,0,0,0,0,0,0,0,0,0,0,0,0,0,0,0,0,0,0,0,0,0,0,0,0,0,0,0,0,0,0,0,0,0,1272,1273,0,0,0,0,0,0,0,0,0,0,0,0,0,0,0,0,0,0,0,
0,0,0,0,0,0,0,0,0,0,0,0,0,0,0,0,0,0,0,0,1513,1514,1515,0,0,0,0,0,0,0,0,0,0,0,0,0,0,0,0,0,0,0,0,1336,1337,0,0,1513,1514,1515,0,0,0,0,0,0,0,0,0,0,0,0,0,0,
0,0,0,0,0,0,0,0,0,0,0,0,0,0,0,0,0,0,0,0,1577,1578,1579,0,0,0,0,0,0,0,0,0,0,0,0,0,0,0,0,0,0,0,0,0,0,0,0,1577,1578,1579,0,0,0,0,0,0,0,0,0,0,0,0,0,0,
0,0,0,0,0,0,0,0,0,0,0,0,0,0,0,0,0,0,0,0,0,0,0,0,0,0,0,0,0,0,0,0,0,0,0,0,0,0,0,0,0,0,0,0,0,0,0,0,0,0,0,0,0,0,0,0,0,0,0,0,0,0,0,0
</data>
 </layer>
 <layer id="6" name="street acc" width="64" height="56">
  <data encoding="csv">
0,0,0,721,0,0,0,0,0,0,0,0,0,0,0,0,0,0,0,0,0,0,0,0,0,0,0,0,0,0,0,0,0,0,0,0,0,0,0,5148,0,0,0,0,0,0,0,0,0,0,0,0,0,0,0,0,0,0,0,0,0,0,0,0,
0,0,0,721,0,0,0,0,0,0,0,0,0,0,0,0,0,0,0,0,0,0,0,0,0,0,0,0,0,0,0,0,0,0,0,0,0,0,0,0,0,0,0,0,0,0,0,0,0,0,0,0,0,0,0,0,0,0,0,0,0,829,830,0,
0,0,0,721,0,0,0,0,0,0,0,0,0,0,0,0,0,0,0,0,0,0,0,0,5147,0,0,0,0,0,0,0,0,0,0,0,0,0,0,0,0,0,0,0,0,0,0,0,0,0,0,0,0,0,0,0,0,0,0,0,0,845,846,0,
0,0,0,721,607,0,0,0,0,0,0,0,0,0,0,0,0,0,0,0,0,0,0,0,0,0,0,0,0,0,0,0,0,0,0,0,0,0,0,0,0,0,5210,0,0,0,0,0,5131,0,0,0,0,0,0,5210,0,0,0,0,0,861,862,0,
0,0,0,721,0,0,0,0,0,0,0,0,0,0,0,0,0,0,0,0,0,0,0,0,0,0,5208,0,0,0,0,0,0,0,0,0,0,0,0,0,0,0,5226,0,0,0,0,0,0,0,0,0,0,0,0,5226,0,0,0,0,0,5148,0,0,
0,0,0,721,0,0,0,0,0,0,0,0,0,0,0,0,0,0,0,0,0,0,0,0,0,0,5224,0,0,0,0,0,0,0,0,0,0,0,0,0,0,0,0,0,0,0,0,0,0,5192,0,0,0,0,0,0,0,5158,0,0,0,0,0,0,
0,0,0,721,0,0,0,0,0,0,0,0,0,0,0,0,0,0,0,0,0,0,0,0,0,0,5208,0,0,0,0,0,0,0,0,0,0,0,0,0,0,0,0,5133,0,0,0,0,0,0,0,0,0,0,0,0,0,5174,0,0,0,0,0,0,
576,0,0,721,0,0,0,0,0,0,0,0,0,0,0,0,0,0,0,0,0,0,0,0,0,0,5224,0,0,0,0,0,0,0,0,0,0,0,0,0,0,0,0,0,0,0,0,0,0,0,0,0,0,5190,0,0,0,0,0,0,0,0,0,0,
0,0,0,721,0,0,0,0,0,0,0,0,0,0,0,0,0,0,0,0,0,0,0,0,0,0,0,0,0,0,0,0,0,0,0,0,0,0,0,0,0,0,0,0,0,0,0,0,0,0,0,0,0,0,0,0,0,0,0,0,0,0,0,0,
0,0,0,721,0,0,0,0,0,0,0,0,0,0,0,0,0,0,0,0,0,0,0,0,5155,5156,0,0,0,0,0,0,0,0,0,0,0,0,0,549,517,549,549,549,549,549,549,549,514,0,515,549,549,549,549,549,549,517,549,549,549,549,549,549,
0,0,0,721,0,0,0,0,0,0,0,0,0,0,0,0,0,0,0,0,0,0,0,0,5171,5172,0,0,0,0,0,0,0,0,0,0,0,0,0,0,0,0,0,0,0,0,0,0,0,0,0,0,0,0,0,0,0,0,0,0,0,0,0,0,
0,0,560,721,0,0,0,0,0,0,0,0,0,0,0,0,0,0,0,0,0,0,0,0,0,0,0,0,0,0,0,0,0,0,0,0,0,0,0,0,0,0,0,0,0,0,0,0,0,0,0,0,0,0,0,0,0,0,0,0,0,0,0,0,
0,0,0,721,0,0,0,0,0,0,0,0,0,0,0,0,0,0,0,0,5128,5129,0,5187,0,0,0,0,0,0,0,0,0,0,5195,5128,5129,0,0,0,0,0,0,0,0,0,0,0,0,0,0,0,0,0,0,0,0,0,0,0,0,0,0,0,
0,0,0,721,0,0,0,0,0,0,0,0,0,0,0,0,0,0,0,0,0,0,0,5203,0,0,0,0,608,0,0,0,5191,0,0,0,0,0,0,0,0,0,0,0,0,0,0,0,0,0,0,0,0,0,0,0,0,0,0,0,0,5214,0,0,
0,0,0,721,0,0,0,0,0,0,559,0,0,5168,0,0,0,0,0,0,0,0,0,5219,0,0,0,0,0,0,0,0,0,0,5168,0,0,0,0,0,0,0,0,0,0,0,0,0,0,0,0,5219,0,0,0,0,0,0,0,0,0,5230,0,0,
0,0,0,721,0,0,0,0,0,0,0,0,0,0,0,0,0,0,0,0,0,0,0,5235,0,0,0,0,0,0,0,0,0,0,0,0,0,0,0,0,0,0,0,0,0,0,0,0,0,0,0,5235,0,0,0,0,0,0,0,0,0,0,0,0,
0,0,0,721,0,0,0,0,0,0,0,0,0,0,0,0,0,0,0,0,0,0,0,0,0,0,0,0,0,0,0,0,0,0,0,0,0,0,0,0,5148,0,0,0,0,0,0,0,0,0,0,0,0,0,0,0,0,0,0,0,0,0,0,0,
0,576,0,721,0,0,0,0,0,0,0,0,0,0,0,0,0,0,0,5184,0,0,0,0,0,0,0,0,0,0,0,0,0,0,0,0,0,0,0,528,0,0,0,0,0,5184,0,0,0,0,0,0,0,0,0,0,0,0,0,0,0,0,0,0,
0,0,0,721,0,0,0,0,0,0,0,0,0,0,0,0,0,0,0,5200,0,0,0,0,0,0,0,0,0,0,0,0,0,0,0,0,0,0,0,544,0,0,0,0,0,5200,0,0,0,0,0,0,0,0,0,0,0,0,0,0,0,0,0,0,
0,0,0,721,0,5159,0,0,0,0,0,5148,0,0,0,0,0,0,0,5216,0,0,0,0,0,0,0,0,0,0,0,0,0,0,0,0,0,0,0,0,0,0,0,0,0,5216,0,0,0,0,0,0,0,0,0,0,0,0,0,0,0,0,0,0,
0,0,0,721,0,5175,0,0,0,0,0,0,0,0,0,0,0,0,0,5232,0,0,0,5168,0,0,0,0,0,0,0,0,0,0,0,0,0,0,0,0,0,0,0,0,0,5232,0,0,0,5168,0,0,0,0,0,0,0,0,0,0,0,0,0,0,
0,0,0,721,0,0,0,0,0,0,0,0,0,0,0,0,0,0,0,0,0,0,0,0,0,0,0,0,0,0,0,0,0,0,0,0,0,0,0,0,0,0,0,0,0,0,0,0,0,0,0,0,0,0,0,0,0,0,0,5147,0,0,0,0,
0,0,0,737,722,722,740,722,722,722,722,722,722,713,722,722,722,722,722,722,706,722,722,722,722,722,722,740,739,722,722,722,722,722,722,722,722,722,722,722,722,722,722,706,722,722,722,722,722,722,722,722,722,722,722,740,722,738,722,722,722,706,722,722,
0,0,0,0,0,0,0,0,0,0,0,0,591,729,527,0,0,0,0,0,0,0,0,0,0,0,0,0,0,0,0,0,0,0,0,0,0,0,0,0,0,0,0,0,0,0,0,0,0,0,0,0,0,0,0,0,0,0,0,0,0,0,0,0,
0,0,0,0,0,0,0,0,0,0,0,0,608,607,528,0,0,0,0,0,0,0,0,0,0,0,0,0,0,0,0,0,0,0,0,0,0,0,0,0,0,0,0,0,0,0,0,0,0,0,0,0,0,0,0,0,0,0,0,0,0,0,0,0,
0,0,0,0,0,0,0,0,0,0,0,0,0,0,0,0,0,0,0,0,0,0,0,0,0,0,0,0,0,0,0,0,0,0,0,0,0,0,0,0,0,0,0,0,0,0,0,0,0,0,0,0,0,0,0,0,0,0,0,0,0,0,0,0,
0,0,0,0,0,5132,0,0,0,0,0,0,0,0,0,0,0,0,0,0,0,0,0,0,0,0,0,0,0,0,0,0,0,0,0,0,0,0,0,0,0,0,0,0,0,0,0,0,0,0,0,0,0,0,0,0,0,0,0,0,0,559,0,0,
0,0,0,0,0,0,0,0,0,0,0,0,0,0,0,0,0,0,0,0,0,0,0,0,0,0,0,0,0,0,0,0,0,0,0,0,0,0,0,0,0,0,0,0,0,0,0,0,0,0,0,0,0,0,0,0,0,0,0,0,0,0,0,0,
0,0,0,0,0,0,0,0,0,0,0,0,0,0,0,0,0,0,0,0,0,0,0,0,0,0,0,0,0,0,0,0,0,0,0,0,0,0,0,0,0,0,0,0,0,0,575,0,0,0,0,0,0,0,0,527,0,0,0,0,0,0,0,0,
0,0,0,0,0,0,0,0,0,0,0,0,0,0,0,0,0,0,0,0,0,0,0,0,0,0,0,0,0,0,0,0,0,0,0,0,0,0,0,0,0,0,0,0,0,0,0,559,0,0,0,0,0,0,0,0,0,0,0,0,0,0,0,0,
0,0,0,0,0,0,0,0,0,0,0,0,0,0,0,0,0,0,0,0,0,0,0,0,0,0,0,0,0,0,0,0,0,0,0,0,0,0,0,0,0,0,0,0,0,0,0,0,0,0,0,0,0,0,0,0,0,0,0,0,0,0,0,0,
0,0,0,0,0,0,0,0,0,0,0,0,0,0,0,0,0,0,0,0,0,0,0,0,0,0,0,0,0,0,0,0,0,0,0,0,0,0,0,0,0,0,0,0,0,0,0,0,0,0,0,0,0,0,0,0,0,0,0,0,0,0,0,0,
0,0,0,0,0,0,0,0,0,0,0,0,0,0,0,0,0,0,0,0,0,0,0,0,0,0,0,0,0,0,0,0,0,0,0,0,0,0,0,0,0,0,0,0,0,0,0,0,0,0,0,0,0,0,0,0,0,0,0,0,0,0,0,0,
0,0,0,0,0,0,0,0,0,0,0,0,0,0,0,0,0,0,0,0,0,0,0,0,0,0,0,0,0,0,0,0,0,0,0,0,0,0,0,0,0,0,0,0,0,0,0,0,0,0,0,0,0,0,0,0,0,0,0,0,607,0,0,0,
0,0,0,0,0,0,0,0,0,0,0,0,0,0,0,0,0,0,0,0,0,0,0,0,0,0,0,0,0,0,0,0,0,0,0,0,0,0,0,0,0,0,0,5131,0,0,0,0,0,0,0,0,0,0,0,0,0,0,0,0,0,0,0,0,
0,0,0,0,0,0,0,0,0,0,0,0,0,0,0,0,0,0,0,0,0,0,0,0,0,0,0,0,0,0,0,0,0,0,0,0,0,0,0,0,0,0,0,0,0,0,0,0,0,0,591,0,0,0,0,0,0,0,0,0,0,0,0,0,
2147484370,742,0,0,743,2147484370,2147484370,2147484370,2147484370,2147484370,2147484370,2147484370,706,2147484370,2147484370,2147484370,2147484370,2147484370,2147484370,2147484370,2147484370,2147484370,742,0,0,0,0,0,743,2147484370,2147484370,2147484370,2147484370,2147484370,2147484370,2147484370,706,2147484370,2147484370,2147484370,2147484370,2147484370,2147484370,2147484370,2147484370,2147484370,2147484370,2147484370,2147484370,2147484370,2147484370,2147484370,2147484370,2147484370,2147484370,2147484370,2147484370,2147484370,2147484370,2147484370,2147484370,2147484370,2147484385,0,
0,0,0,0,0,0,0,0,0,0,0,0,0,0,0,0,0,0,0,0,0,0,0,0,0,0,0,0,0,0,0,0,0,0,0,0,0,0,0,0,0,0,0,0,0,0,0,0,0,0,0,0,0,0,0,0,0,0,0,0,0,0,2147484369,0,
0,0,0,0,0,0,0,0,0,0,0,0,0,0,0,0,0,0,0,0,0,0,0,0,0,0,0,0,0,0,0,0,0,0,0,575,0,0,0,0,0,0,0,0,0,0,0,0,0,0,0,0,0,0,0,0,0,0,0,0,0,0,2147484369,0,
0,0,0,0,0,0,0,0,0,0,0,0,0,0,0,0,0,0,0,0,0,0,0,0,0,0,0,0,0,0,0,0,0,0,0,0,0,0,0,0,0,0,0,0,0,0,0,0,0,0,0,0,0,0,0,0,0,0,0,0,0,0,2147484369,0,
0,0,0,0,0,0,0,0,0,0,0,0,0,0,0,0,0,0,0,0,0,0,0,0,0,0,0,0,0,0,0,0,0,0,0,0,0,0,0,0,0,0,0,0,0,0,0,0,0,0,0,0,0,0,0,0,0,0,0,0,0,0,2147484369,0,
0,0,0,0,0,0,0,0,0,0,0,0,0,0,0,0,0,0,560,0,0,0,0,0,0,0,0,0,0,0,0,0,0,0,0,0,0,0,0,0,0,0,0,0,0,0,0,0,0,0,0,0,0,0,0,0,0,0,0,0,0,0,2147484369,0,
0,0,0,0,0,0,0,0,0,0,0,0,0,0,0,0,0,0,0,0,0,0,0,0,0,0,0,0,0,0,0,0,0,0,0,0,0,0,0,0,0,0,0,0,0,0,0,0,0,0,0,0,0,0,0,0,0,0,0,0,0,0,2147484369,0,
0,0,0,0,0,0,0,0,0,0,0,0,0,0,0,0,0,0,0,0,0,0,0,0,0,0,0,0,0,0,0,0,0,0,0,0,0,0,0,0,0,0,0,0,0,0,0,0,0,0,0,0,0,0,0,0,0,0,0,0,0,0,2147484369,0,
2147484370,2147484370,2147484370,2147484370,2147484370,2147484370,2147484370,2147484370,2147484370,2147484370,740,2147484370,2147484370,2147484370,2147484370,2147484370,2147484370,2147484370,2147484370,2147484370,2147484370,2147484370,2147484370,2147484370,2147484370,2147484370,2147484370,2147484370,740,2147484370,2147484370,2147484370,2147484370,2147484370,2147484370,2147484370,2147484370,2147484370,2147484370,2147484370,2147484370,2147484370,2147484370,2147484370,740,2147484370,2147484370,2147484370,2147484370,2147484370,2147484370,2147484370,2147484370,2147484370,2147484385,0,0,0,0,0,0,0,2147484369,0,
0,5132,0,0,0,0,0,0,0,0,0,0,0,0,0,0,0,0,0,0,0,0,0,0,0,0,0,0,0,0,0,0,0,0,0,0,0,0,0,0,0,0,0,0,0,0,0,0,0,0,0,0,0,0,2147484369,0,0,0,0,0,0,0,2147484369,0,
0,0,0,0,0,0,0,0,0,0,0,0,0,0,0,0,0,0,0,0,0,0,0,0,0,0,0,0,0,0,0,0,0,0,0,0,0,0,0,0,0,0,0,0,528,0,0,0,0,0,0,0,0,0,2147484369,0,0,0,0,0,0,0,2147484369,0,
0,0,0,0,0,0,0,0,0,0,0,0,0,0,0,0,0,0,0,0,0,0,0,0,0,0,0,0,0,576,0,0,0,0,0,0,0,0,0,0,0,0,0,0,0,0,0,0,0,0,0,0,0,0,2147484369,0,0,0,0,0,0,0,2147484369,0,
0,0,0,0,0,0,0,0,0,0,0,608,0,0,0,0,0,0,0,0,0,0,0,0,0,0,0,0,0,0,0,0,0,0,0,0,0,0,0,0,0,0,0,0,0,0,0,0,0,0,0,0,0,0,2147484369,0,0,0,0,0,0,0,2147484369,0,
0,0,0,0,0,0,0,0,0,0,0,0,0,0,0,0,0,0,0,0,0,0,0,0,0,0,5132,0,0,0,0,0,0,0,0,0,0,0,0,0,0,0,0,0,0,0,0,0,0,0,0,0,0,0,2147484369,0,0,0,0,0,0,0,2147484369,0,
0,0,0,0,0,0,0,0,0,0,0,0,0,0,0,0,0,0,0,0,0,0,0,0,0,0,0,0,0,0,0,0,0,0,0,0,0,0,0,0,0,0,0,0,0,0,0,0,0,0,0,0,0,0,2147484369,0,0,0,0,0,0,0,2147484369,0,
0,0,0,0,0,0,0,0,0,0,0,0,0,0,5135,0,0,0,0,0,0,0,0,0,0,0,0,0,0,0,0,0,0,0,0,0,0,0,0,0,0,0,0,0,0,0,0,0,0,575,0,0,0,0,2147484369,0,0,0,0,0,0,0,2147484369,0,
0,0,0,0,0,5131,0,0,0,0,0,0,0,0,0,0,0,0,0,0,0,0,0,0,0,0,0,0,0,0,0,0,0,0,0,0,0,0,0,0,0,0,0,0,0,0,0,0,0,0,0,0,0,0,2147484369,0,0,0,0,0,0,0,2147484369,0,
0,0,0,0,0,0,0,0,0,0,0,0,0,0,0,0,0,0,0,0,0,0,0,0,0,0,0,0,0,0,0,0,0,0,0,0,0,0,0,0,0,0,0,0,0,0,0,0,0,0,0,608,0,0,2147484369,0,0,0,0,0,0,0,2147484369,0,
0,0,0,0,0,0,0,0,0,0,0,0,0,0,0,0,0,0,0,0,0,0,0,0,0,0,0,2147488784,0,0,0,0,0,0,0,0,0,0,0,0,0,0,0,0,0,0,0,0,0,0,0,0,0,0,2147484369,0,0,0,0,0,0,0,2147484369,0,
0,0,0,0,0,0,0,0,0,0,0,0,0,0,0,0,0,0,0,0,0,0,0,0,0,0,0,0,0,0,0,0,0,0,0,0,0,0,0,0,0,0,0,0,0,0,0,0,0,0,0,0,0,0,2147484369,0,0,0,0,0,0,0,2147484369,0
</data>
 </layer>
 <layer id="8" name="trees" width="64" height="56">
  <data encoding="csv">
0,0,0,0,0,0,0,0,0,0,0,0,0,0,0,0,0,0,0,0,0,0,0,0,0,0,0,0,0,0,0,0,0,0,0,0,0,0,0,0,0,0,0,0,0,0,0,0,0,0,0,0,0,0,0,0,0,0,0,0,0,0,0,0,
0,0,0,0,0,0,0,0,0,0,0,0,0,0,0,0,0,0,0,0,0,0,0,0,0,0,0,0,0,0,0,0,0,0,0,0,0,0,0,0,0,0,0,0,0,0,0,0,0,0,0,0,0,0,0,0,0,0,0,0,0,0,0,0,
0,0,0,0,0,0,0,0,0,0,0,0,0,0,0,0,0,0,0,0,0,0,0,0,0,0,0,0,0,0,0,0,0,0,0,0,0,0,0,0,0,0,0,0,0,0,0,0,0,0,0,0,0,0,0,0,0,0,0,0,0,0,0,0,
0,0,0,0,0,0,0,0,0,0,0,0,0,0,0,0,0,0,0,0,0,0,0,0,0,0,0,0,0,0,0,0,0,0,0,0,0,0,0,0,0,0,0,0,0,0,0,0,0,0,0,0,0,0,0,0,0,0,0,0,0,0,0,0,
2691,2692,0,0,0,0,0,0,0,0,0,0,0,0,0,0,0,0,0,0,0,0,0,0,0,0,0,0,0,0,0,0,0,0,0,0,0,0,0,0,0,0,0,0,0,0,0,0,0,0,0,0,0,0,0,0,0,0,0,0,0,0,0,0,
0,0,0,0,0,0,0,0,0,0,0,0,0,0,0,0,0,0,0,0,0,0,0,0,0,0,5195,0,0,0,0,0,0,0,0,0,0,0,0,0,0,0,0,0,0,0,0,0,0,0,0,0,0,2690,0,0,0,0,0,0,0,0,0,0,
0,0,0,0,0,0,0,0,0,0,0,0,0,0,0,0,0,0,0,0,0,0,0,0,0,0,0,0,0,0,0,0,0,0,0,0,0,0,0,0,2693,2694,0,0,0,0,0,0,0,0,0,0,0,0,0,0,0,0,0,0,0,0,0,0,
0,0,0,0,0,0,0,0,0,0,0,0,0,0,0,0,0,0,0,0,0,0,0,0,0,0,0,0,0,0,0,0,0,0,0,0,0,0,0,0,2757,2758,0,0,0,0,0,0,0,0,0,0,0,0,0,0,0,0,0,0,0,0,0,0,
0,0,0,0,0,0,0,0,0,0,0,0,0,0,0,0,0,0,0,0,0,0,0,0,0,0,0,0,0,0,0,0,0,0,0,0,0,0,0,0,0,0,0,0,0,0,0,0,0,0,0,0,0,0,0,0,0,0,0,0,0,0,0,0,
0,0,0,0,0,0,0,0,0,0,0,0,0,0,0,0,0,0,0,0,0,0,0,0,0,0,0,0,0,0,0,0,0,0,0,0,0,0,0,0,0,0,0,0,0,0,0,0,0,0,0,0,0,0,0,0,0,0,0,0,0,0,0,0,
0,0,0,0,0,0,0,0,0,0,0,0,0,0,0,0,0,0,0,0,0,0,0,0,5195,5196,0,0,0,0,0,0,0,0,0,0,0,0,0,0,0,0,0,0,0,0,0,0,0,0,0,0,0,0,0,0,0,0,0,0,0,0,0,0,
0,0,0,0,0,0,0,0,0,0,0,0,0,0,0,0,0,0,0,0,0,0,0,0,0,0,0,0,0,0,0,0,0,0,0,0,0,0,0,0,0,0,0,0,0,0,0,0,0,0,0,0,0,0,0,0,0,0,0,0,0,0,0,0,
0,0,0,0,0,0,0,0,0,0,0,0,0,0,0,0,0,0,0,0,0,0,0,0,0,0,2693,2694,0,0,0,0,0,0,0,0,0,0,0,0,0,0,0,0,0,0,0,0,0,0,0,0,0,0,0,0,0,0,0,0,0,0,0,0,
0,0,0,0,0,0,0,0,0,0,0,0,0,0,0,0,0,0,0,0,0,0,0,0,0,0,2757,2758,0,0,0,0,0,0,0,0,0,0,0,0,0,0,0,0,0,0,0,0,0,0,0,0,0,0,0,0,0,0,0,0,0,0,0,0,
0,0,0,0,0,0,0,0,0,0,0,0,0,0,0,0,0,0,0,0,0,0,0,0,0,0,5613,5614,0,0,0,0,0,0,0,0,0,0,0,0,0,0,0,0,0,0,0,0,0,0,0,0,0,0,0,0,0,0,0,0,0,0,0,0,
0,0,0,0,0,0,0,0,0,0,0,0,0,0,0,0,0,0,0,0,0,0,0,0,0,0,0,0,0,0,0,0,0,0,0,0,0,0,0,0,0,0,0,0,0,0,0,0,0,0,0,0,0,0,0,0,0,0,0,0,0,0,0,0,
0,0,0,0,0,0,0,0,0,0,0,0,0,0,0,0,0,0,0,0,0,0,0,0,0,0,0,0,0,0,0,0,0,0,0,0,0,0,0,0,0,0,0,0,0,0,0,0,0,0,0,0,0,0,0,0,0,0,0,0,0,0,0,0,
0,0,0,0,0,0,0,0,0,0,0,0,0,0,0,0,0,0,0,0,0,0,0,0,0,0,0,0,0,0,0,0,0,0,0,0,0,0,0,0,0,0,0,0,0,0,0,0,0,0,0,0,0,0,0,0,0,0,0,0,0,0,0,0,
0,0,0,0,0,0,0,0,0,0,0,0,0,0,0,0,0,0,0,0,0,0,0,0,0,0,0,0,0,0,0,0,0,0,0,0,0,0,0,0,0,0,0,0,0,0,0,0,0,0,0,0,0,0,0,0,0,0,0,0,0,0,0,0,
0,0,0,0,0,0,0,0,0,0,0,0,0,0,0,0,0,0,0,0,0,0,0,0,0,0,0,0,0,0,0,0,0,0,0,0,0,0,0,0,0,0,0,0,0,0,0,0,0,0,0,0,0,0,0,0,0,0,0,0,0,0,0,0,
0,0,0,0,0,0,0,0,0,0,0,0,0,0,0,0,0,0,0,0,0,0,0,0,0,2690,0,0,0,0,0,0,0,0,0,0,0,0,0,0,0,0,0,0,0,0,0,0,0,0,0,0,0,0,0,0,0,0,0,0,0,0,0,0,
0,0,0,0,0,0,0,0,0,0,0,0,0,0,0,0,0,0,0,0,0,0,0,0,0,0,0,0,0,0,0,0,0,0,0,0,0,0,0,0,0,0,0,0,0,0,0,0,0,0,0,0,0,0,0,0,0,0,0,0,0,0,0,0,
0,0,0,0,0,0,0,0,0,0,0,0,0,0,0,0,0,0,0,0,0,0,0,0,0,0,0,0,0,0,0,0,0,0,810,0,0,0,0,0,0,0,0,0,0,0,0,0,0,0,0,0,0,0,0,0,0,0,0,0,0,0,0,0,
0,0,0,0,0,0,0,0,0,0,0,0,0,0,0,0,0,0,0,0,0,0,0,0,0,0,0,0,0,0,0,0,0,0,0,0,0,0,0,0,0,0,0,0,0,0,0,0,0,0,0,0,0,0,0,0,0,0,0,0,0,0,0,0,
0,0,0,0,0,0,0,0,0,0,0,0,0,0,0,0,0,0,0,0,0,0,0,0,0,0,0,0,0,0,0,0,0,0,0,0,0,0,0,0,0,0,0,0,0,0,0,0,0,0,0,0,0,0,0,0,0,0,0,0,0,0,0,0,
0,0,0,0,0,0,0,0,0,0,0,0,0,0,0,0,0,0,0,0,0,0,0,0,0,0,0,0,0,0,0,0,0,0,0,0,0,0,0,0,0,0,0,0,0,0,0,0,0,0,0,0,0,0,0,0,0,0,0,0,0,0,0,0,
0,0,0,0,0,0,0,0,0,0,0,0,0,0,0,0,0,0,0,0,0,0,0,0,0,0,0,0,0,0,0,0,0,0,0,0,0,0,0,0,0,0,0,0,0,0,0,0,0,0,0,0,0,0,0,0,0,0,0,0,0,0,0,0,
0,0,0,0,0,0,0,0,0,0,0,0,0,0,0,0,0,0,0,0,0,0,0,0,0,0,0,0,0,0,0,0,0,0,0,0,0,0,0,0,0,0,0,0,0,0,0,0,0,0,0,0,0,0,0,0,2693,2694,0,0,0,0,0,0,
0,0,0,0,0,0,0,0,0,0,0,0,0,0,0,0,0,0,0,0,0,0,0,0,0,0,0,0,0,0,0,0,0,0,0,0,0,0,0,0,0,0,0,0,0,0,0,0,0,0,0,0,0,0,0,0,2757,2758,0,0,0,0,0,0,
0,0,0,0,0,0,0,0,0,0,0,0,0,0,0,0,0,0,0,0,0,0,0,0,0,0,0,0,0,0,0,0,0,0,0,0,0,0,0,0,0,0,0,0,0,0,0,0,0,0,0,0,0,0,0,0,0,0,0,0,0,0,0,0,
0,0,0,0,0,0,0,0,0,0,0,0,0,0,0,0,0,0,0,0,0,0,0,0,0,0,0,0,0,0,0,0,0,0,0,0,0,0,0,0,0,0,0,0,0,0,0,0,0,0,0,0,0,0,0,0,0,0,0,0,0,0,0,0,
0,0,0,0,0,0,0,0,0,0,0,0,0,0,0,0,0,0,0,0,0,0,0,0,0,0,0,0,0,0,0,0,0,0,0,0,0,0,0,0,0,0,0,0,0,0,0,0,0,0,0,0,0,0,0,0,0,0,0,0,0,0,0,0,
0,0,0,0,0,0,0,0,0,0,0,0,0,0,0,0,0,0,0,0,0,0,0,0,0,0,0,0,0,0,0,0,0,0,0,0,0,0,0,0,0,0,0,0,0,0,0,0,0,0,0,0,0,0,0,0,0,0,0,0,0,0,0,0,
0,0,0,0,0,0,0,0,0,0,0,0,0,0,0,0,0,0,0,0,0,0,0,0,0,0,0,0,0,0,0,0,0,0,0,0,0,0,0,0,0,0,0,0,0,0,0,0,0,0,0,0,0,0,0,0,0,0,0,0,0,0,0,0,
0,1873,1874,1875,1876,0,0,0,0,0,0,0,0,0,0,0,0,0,0,0,0,0,0,0,0,0,0,0,0,0,0,0,0,0,0,0,0,0,0,0,0,0,0,0,0,0,0,0,0,0,0,0,0,0,0,0,0,0,0,0,0,0,0,0,
0,1937,1938,1939,1940,0,0,0,0,0,0,0,0,0,0,0,0,0,0,0,0,0,0,0,0,0,0,0,0,0,0,0,0,0,0,0,0,0,0,0,0,0,0,0,0,0,0,0,0,0,0,0,0,0,0,0,0,0,0,0,0,0,0,0,
0,2001,2002,2003,2004,0,0,0,0,0,0,0,0,0,0,0,0,0,0,0,0,0,0,0,0,0,0,0,0,0,0,0,0,0,0,0,0,0,0,0,0,0,0,0,0,0,0,0,0,0,0,0,0,0,0,0,0,0,0,0,0,0,0,0,
0,2065,2066,2067,2068,0,0,0,0,0,0,0,0,0,0,0,0,0,0,0,0,0,0,0,0,0,0,0,0,0,0,0,0,0,0,0,0,0,0,0,0,0,0,0,0,0,0,0,0,0,0,0,0,0,0,0,0,0,0,0,0,0,0,0,
0,0,0,0,0,0,0,0,0,0,0,0,0,0,0,0,0,0,0,0,0,0,0,0,0,0,0,0,0,0,0,0,0,0,0,0,0,0,0,0,0,0,0,0,0,0,0,0,0,0,0,0,0,0,0,0,0,0,0,0,0,0,0,0,
0,0,0,0,0,0,0,0,0,0,0,0,0,0,0,0,0,0,0,0,0,0,0,0,0,0,0,0,0,0,0,0,0,0,0,0,0,0,0,0,0,0,0,0,0,0,0,0,0,0,0,0,0,0,0,0,0,0,0,0,0,0,0,0,
0,0,0,0,0,0,0,0,0,0,0,0,0,0,0,0,0,0,0,0,0,0,0,0,0,0,0,0,0,0,0,0,0,0,0,0,0,0,0,0,0,0,0,0,0,0,0,0,0,0,0,0,0,0,0,0,0,0,0,0,0,0,0,0,
0,0,0,0,0,0,0,0,0,0,0,0,0,0,0,0,0,0,0,0,0,0,0,0,0,0,0,0,0,0,0,0,0,0,0,0,0,0,0,0,0,0,0,0,0,0,0,0,0,0,0,0,0,0,0,0,0,0,0,0,0,0,0,0,
0,0,0,0,0,0,0,0,0,0,0,0,0,0,0,0,0,0,0,0,0,0,0,0,0,0,0,0,0,0,0,0,0,0,0,0,0,0,0,0,0,0,0,0,0,0,0,0,0,0,0,0,0,0,0,0,0,0,0,0,0,0,0,0,
0,0,0,0,0,0,0,0,0,0,0,0,0,0,0,0,0,0,0,0,0,0,0,0,0,0,0,0,0,0,0,0,0,0,0,0,0,0,0,0,0,0,0,0,0,0,0,0,0,0,0,0,0,0,0,0,0,0,0,0,0,0,0,0,
0,0,0,0,0,0,0,0,0,0,0,0,0,0,0,0,0,0,0,0,0,0,0,0,0,0,0,0,0,0,0,0,0,0,0,0,0,0,0,0,0,0,0,0,0,0,0,0,0,0,0,0,0,0,0,0,0,0,0,0,0,0,0,0,
0,0,0,0,0,0,0,0,0,0,0,0,0,0,0,0,0,0,0,0,0,0,0,0,0,0,0,0,0,0,0,0,0,0,0,0,0,0,0,0,0,0,0,0,0,0,0,0,0,0,0,0,0,0,0,0,0,0,0,0,0,0,0,0,
0,0,0,0,0,0,0,0,0,0,0,0,0,2147486342,2147486341,0,0,0,0,0,0,0,0,0,0,0,0,0,0,0,0,2147486342,2147486341,0,0,0,0,0,0,0,0,0,0,0,0,0,0,0,0,0,0,0,0,0,0,0,0,0,0,0,0,0,0,0,
0,0,0,0,0,2147486342,2147486341,0,0,0,0,0,0,2147486406,2147486405,0,0,0,0,0,0,0,0,0,0,0,0,0,0,0,0,2147486406,2147486405,0,0,0,0,0,0,2147486342,2147486341,0,0,0,0,0,0,0,0,2147486342,2147486341,0,0,0,0,0,0,0,0,0,0,0,0,0,
0,0,0,0,0,2147486406,2147486405,0,0,0,0,0,0,2147486470,2147486469,0,0,0,0,0,2147486342,2147486341,0,0,0,0,0,0,0,0,0,2147486470,2147486469,0,0,0,0,0,0,2147486406,2147486405,0,0,0,0,0,0,0,0,2147486406,2147486405,0,0,0,0,0,0,0,0,0,0,0,0,0,
0,0,0,0,0,2147486470,2147486469,0,0,0,0,0,0,0,0,0,0,0,0,0,2147486406,2147486405,0,0,0,0,0,0,0,0,0,0,0,0,0,0,0,0,0,2147486470,2147486469,0,0,0,0,0,0,0,0,2147486470,2147486469,0,0,0,0,0,0,0,0,0,0,0,0,0,
0,0,0,0,0,0,0,0,0,0,0,2147486342,2147486341,0,0,0,0,0,0,0,2147486470,2147486469,0,0,0,2147486342,2147486341,0,0,0,0,0,0,0,0,0,0,0,0,0,0,0,0,0,0,0,0,0,0,0,0,0,0,0,0,0,0,0,0,0,0,0,0,0,
0,0,0,0,0,0,0,0,0,0,0,2147486406,2147486405,0,0,0,0,0,0,0,0,0,0,0,0,2147486406,2147486405,0,0,0,0,0,0,0,2147486342,2147486341,0,0,0,0,0,0,0,0,0,0,0,0,0,0,0,0,0,0,0,0,0,0,0,0,0,0,0,0,
0,0,0,0,0,0,0,2147486342,2147486341,0,0,2147486470,2147486469,0,0,0,0,2147486342,2147486341,0,0,0,0,0,0,2147486470,2147486469,0,0,0,2147486342,2147486341,0,0,2147486406,2147486405,0,0,0,0,2147486340,2147486339,0,0,0,0,2147486342,2147486341,0,0,0,0,0,0,0,0,0,0,0,0,0,0,0,0,
0,0,0,0,0,0,0,2147486406,2147486405,0,0,0,0,0,0,0,0,2147486406,2147486405,0,0,0,0,0,0,0,0,0,0,0,2147486406,2147486405,0,0,2147486470,2147486469,0,0,0,0,0,0,0,0,0,0,2147486406,2147486405,0,0,0,0,0,0,0,0,0,0,0,0,0,0,0,0,
0,0,0,0,0,0,0,2147486470,2147486469,0,0,2147486404,2147486403,0,0,0,0,2147486470,2147486469,0,0,0,0,0,0,2147486342,2147486341,0,0,0,2147486470,2147486469,0,0,0,0,0,0,0,0,0,0,0,0,0,0,2147486470,2147486469,0,0,0,0,0,0,0,0,0,0,0,0,0,0,0,0,
0,0,0,0,0,0,0,0,0,0,0,0,0,0,0,0,0,0,0,0,0,0,0,0,0,2147486406,2147486405,0,0,0,0,0,0,0,0,0,0,0,0,0,0,0,0,0,0,0,0,0,0,0,0,0,0,0,0,0,0,0,0,0,0,0,0,0
</data>
 </layer>
</map>
